;FLAVOR:Marlin
;TIME:19389
;Filament used: 70.6761m
;Layer height: 0.6
;Generated with Cura_SteamEngine 4.0.0
M82 ;absolute extrusion mode
M98 P0:/sys/startprint.g

G92 E0
G10
;LAYER_COUNT:201
;LAYER:0
M107
G0 F3600 X30.511 Y25.57 Z0.52
;TYPE:SKIRT
G11
G1 F1800 X30.899 Y25.229 E0.02947
G1 X31.336 Y24.951 E0.05903
G1 X31.81 Y24.744 E0.08854
G1 X32.31 Y24.613 E0.11803
G1 X32.909 Y24.559 E0.15235
G1 X152.091 Y24.56 E6.95272
G1 X152.607 Y24.6 E6.98225
G1 X153.11 Y24.719 E7.01174
G1 X153.589 Y24.914 E7.04125
G1 X154.033 Y25.18 E7.07078
G1 X154.43 Y25.512 E7.10031
G1 X154.771 Y25.9 E7.12978
G1 X155.049 Y26.337 E7.15934
G1 X155.256 Y26.811 E7.18885
G1 X155.387 Y27.311 E7.21834
G1 X155.441 Y27.91 E7.25266
G1 X155.441 Y147.091 E14.05297
G1 X155.401 Y147.607 E14.0825
G1 X155.282 Y148.11 E14.11199
G1 X155.087 Y148.589 E14.1415
G1 X154.821 Y149.033 E14.17103
G1 X154.489 Y149.43 E14.20056
G1 X154.101 Y149.771 E14.23004
G1 X153.664 Y150.049 E14.25959
G1 X153.19 Y150.256 E14.2891
G1 X152.69 Y150.387 E14.3186
G1 X152.091 Y150.441 E14.35291
G1 X32.909 Y150.441 E21.15328
G1 X32.393 Y150.401 E21.18281
G1 X31.89 Y150.282 E21.2123
G1 X31.411 Y150.087 E21.24181
G1 X30.967 Y149.821 E21.27135
G1 X30.57 Y149.489 E21.30087
G1 X30.229 Y149.101 E21.33035
G1 X29.951 Y148.664 E21.3599
G1 X29.744 Y148.19 E21.38941
G1 X29.613 Y147.69 E21.41891
G1 X29.559 Y147.091 E21.45322
G1 X29.559 Y27.909 E28.25359
G1 X29.599 Y27.393 E28.28312
G1 X29.718 Y26.89 E28.31261
G1 X29.913 Y26.411 E28.34212
G1 X30.179 Y25.967 E28.37166
G1 X30.511 Y25.57 E28.40119
G10
;MESH:xyzCalibration_cube.stl
G0 F3600 X32.016 Y28.964
G0 X33.964 Y28.964
G0 X150.98 Y145.98
G0 X151.75 Y146.75
;TYPE:WALL-OUTER
G11
G1 F1800 X33.25 Y146.75 E35.16264
G1 X33.25 Y28.25 E41.92409
G1 X151.75 Y28.25 E48.68555
G1 X151.75 Y146.75 E55.447
G0 F3600 X151.35 Y146.75
G0 X151.05 Y146.05
;TYPE:WALL-INNER
G1 F1800 X33.95 Y146.05 E62.12858
G1 X33.95 Y28.95 E68.81015
G1 X151.05 Y28.95 E75.49172
G1 X151.05 Y146.05 E82.17329
G0 F3600 X150.35 Y145.35
G1 F1800 X34.65 Y145.35 E88.77498
G1 X34.65 Y29.65 E95.37667
G1 X150.35 Y29.65 E101.97836
G1 X150.35 Y145.35 E108.58005
G0 F3600 X149.66 Y144.66
;TYPE:SKIN
G1 F1800 X35.34 Y144.66 E115.103
G1 X35.34 Y30.34 E121.62595
G1 X149.66 Y30.34 E128.1489
G1 X149.66 Y144.66 E134.67185
G0 F3600 X149.344 Y31.54
G1 F1800 X148.459 Y30.655 E134.74326
G0 F3600 X147.469 Y30.655
G1 F1800 X149.344 Y32.53 E134.89456
G0 F3600 X149.344 Y33.52
G1 F1800 X146.479 Y30.655 E135.12575
G0 F3600 X145.489 Y30.655
G1 F1800 X149.344 Y34.51 E135.43682
G0 F3600 X149.344 Y35.5
G1 F1800 X144.499 Y30.655 E135.82778
G0 F3600 X143.509 Y30.655
G1 F1800 X149.344 Y36.49 E136.29863
G0 F3600 X149.344 Y37.48
G1 F1800 X142.519 Y30.655 E136.84936
G0 F3600 X141.529 Y30.655
G1 F1800 X149.344 Y38.47 E137.47997
G0 F3600 X149.344 Y39.46
G1 F1800 X140.539 Y30.655 E138.19048
G0 F3600 X139.549 Y30.655
G1 F1800 X149.344 Y40.45 E138.98087
G0 F3600 X149.344 Y41.439
G1 F1800 X138.559 Y30.655 E139.8511
G0 F3600 X137.569 Y30.655
G1 F1800 X149.344 Y42.429 E140.80122
G0 F3600 X149.344 Y43.419
G1 F1800 X136.579 Y30.655 E141.83123
G0 F3600 X135.589 Y30.655
G1 F1800 X149.344 Y44.409 E142.94113
G0 F3600 X149.344 Y45.399
G1 F1800 X134.599 Y30.655 E144.13091
G0 F3600 X133.609 Y30.655
G1 F1800 X149.344 Y46.389 E145.40057
G0 F3600 X149.344 Y47.379
G1 F1800 X132.619 Y30.655 E146.75013
G0 F3600 X131.63 Y30.655
G1 F1800 X149.344 Y48.369 E148.17952
G0 F3600 X149.344 Y49.359
G1 F1800 X130.64 Y30.655 E149.68881
G0 F3600 X129.65 Y30.655
G1 F1800 X149.344 Y50.349 E151.27798
G0 F3600 X149.344 Y51.339
G1 F1800 X128.66 Y30.655 E152.94704
G0 F3600 X127.67 Y30.655
G1 F1800 X149.344 Y52.329 E154.69598
G0 F3600 X149.344 Y53.319
G1 F1800 X126.68 Y30.655 E156.52481
G0 F3600 X125.69 Y30.655
G1 F1800 X149.344 Y54.309 E158.43353
G0 F3600 X149.344 Y55.299
G1 F1800 X124.7 Y30.655 E160.42213
G0 F3600 X123.71 Y30.655
G1 F1800 X149.344 Y56.289 E162.49062
G0 F3600 X149.344 Y57.279
G1 F1800 X122.72 Y30.655 E164.63899
G0 F3600 X121.73 Y30.655
G1 F1800 X149.344 Y58.269 E166.86726
G0 F3600 X149.344 Y59.259
G1 F1800 X120.74 Y30.655 E169.1754
G0 F3600 X119.75 Y30.655
G1 F1800 X149.344 Y60.249 E171.56344
G0 F3600 X149.344 Y61.238
G1 F1800 X118.76 Y30.655 E174.03132
G0 F3600 X117.77 Y30.655
G1 F1800 X149.344 Y62.228 E176.57908
G0 F3600 X149.344 Y63.218
G1 F1800 X116.78 Y30.655 E179.20673
G0 F3600 X115.79 Y30.655
G1 F1800 X149.344 Y64.208 E181.91427
G0 F3600 X149.344 Y65.198
G1 F1800 X114.8 Y30.655 E184.7017
G0 F3600 X113.81 Y30.655
G1 F1800 X149.344 Y66.188 E187.56901
G0 F3600 X149.344 Y67.178
G1 F1800 X112.821 Y30.655 E190.51616
G0 F3600 X111.831 Y30.655
G1 F1800 X149.344 Y68.168 E193.54321
G0 F3600 X149.344 Y69.158
G1 F1800 X110.841 Y30.655 E196.65014
G0 F3600 X109.851 Y30.655
G1 F1800 X149.344 Y70.148 E199.83695
G0 F3600 X149.344 Y71.138
G1 F1800 X108.861 Y30.655 E203.10365
G0 F3600 X107.871 Y30.655
G1 F1800 X149.344 Y72.128 E206.45024
G0 F3600 X149.344 Y73.118
G1 F1800 X106.881 Y30.655 E209.87672
G0 F3600 X105.891 Y30.655
G1 F1800 X149.344 Y74.108 E213.38308
G0 F3600 X149.344 Y75.098
G1 F1800 X104.901 Y30.655 E216.96932
G0 F3600 X103.911 Y30.655
G1 F1800 X149.344 Y76.088 E220.63546
G0 F3600 X149.344 Y77.078
G1 F1800 X102.921 Y30.655 E224.38147
G0 F3600 X101.931 Y30.655
G1 F1800 X149.344 Y78.068 E228.20738
G0 F3600 X149.344 Y79.058
G1 F1800 X100.941 Y30.655 E232.11317
G0 F3600 X99.951 Y30.655
G1 F1800 X149.344 Y80.048 E236.09885
G0 F3600 X149.344 Y81.037
G1 F1800 X98.961 Y30.655 E240.16437
G0 F3600 X97.971 Y30.655
G1 F1800 X149.344 Y82.027 E244.30978
G0 F3600 X149.344 Y83.017
G1 F1800 X96.981 Y30.655 E248.53508
G0 F3600 X95.991 Y30.655
G1 F1800 X149.344 Y84.007 E252.84026
G0 F3600 X149.344 Y84.997
G1 F1800 X95.001 Y30.655 E257.22533
G0 F3600 X94.011 Y30.655
G1 F1800 X149.344 Y85.987 E261.69028
G0 F3600 X149.344 Y86.977
G1 F1800 X93.022 Y30.655 E266.23509
G0 F3600 X92.032 Y30.655
G1 F1800 X149.344 Y87.967 E270.85977
G0 F3600 X149.344 Y88.957
G1 F1800 X91.042 Y30.655 E275.56435
G0 F3600 X90.052 Y30.655
G1 F1800 X149.344 Y89.947 E280.34881
G0 F3600 X149.344 Y90.937
G1 F1800 X89.062 Y30.655 E285.21315
G0 F3600 X88.072 Y30.655
G1 F1800 X149.344 Y91.927 E290.15738
G0 F3600 X149.344 Y92.917
G1 F1800 X87.082 Y30.655 E295.1815
G0 F3600 X86.092 Y30.655
G1 F1800 X149.344 Y93.907 E300.28551
G0 F3600 X149.344 Y94.897
G1 F1800 X85.102 Y30.655 E305.4694
G0 F3600 X84.112 Y30.655
G1 F1800 X149.344 Y95.887 E310.73317
G0 F3600 X149.344 Y96.877
G1 F1800 X83.122 Y30.655 E316.07684
G0 F3600 X82.132 Y30.655
G1 F1800 X149.344 Y97.867 E321.50039
G0 F3600 X149.344 Y98.857
G1 F1800 X81.142 Y30.655 E327.00382
G0 F3600 X80.152 Y30.655
G1 F1800 X149.344 Y99.847 E332.58714
G0 F3600 X149.344 Y100.836
G1 F1800 X79.162 Y30.655 E338.25031
G0 F3600 X78.172 Y30.655
G1 F1800 X149.344 Y101.826 E343.99336
G0 F3600 X149.344 Y102.816
G1 F1800 X77.182 Y30.655 E349.81631
G0 F3600 X76.192 Y30.655
G1 F1800 X149.344 Y103.806 E355.71913
G0 F3600 X149.344 Y104.796
G1 F1800 X75.202 Y30.655 E361.70184
G0 F3600 X74.212 Y30.655
G1 F1800 X149.344 Y105.786 E367.76444
G0 F3600 X149.344 Y106.776
G1 F1800 X73.223 Y30.655 E373.90689
G0 F3600 X72.233 Y30.655
G1 F1800 X149.344 Y107.766 E380.12922
G0 F3600 X149.344 Y108.756
G1 F1800 X71.243 Y30.655 E386.43144
G0 F3600 X70.253 Y30.655
G1 F1800 X149.344 Y109.746 E392.81354
G0 F3600 X149.344 Y110.736
G1 F1800 X69.263 Y30.655 E399.27553
G0 F3600 X68.273 Y30.655
G1 F1800 X149.344 Y111.726 E405.81741
G0 F3600 X149.344 Y112.716
G1 F1800 X67.283 Y30.655 E412.43917
G0 F3600 X66.293 Y30.655
G1 F1800 X149.344 Y113.706 E419.14082
G0 F3600 X149.344 Y114.696
G1 F1800 X65.303 Y30.655 E425.92235
G0 F3600 X64.313 Y30.655
G1 F1800 X149.344 Y115.686 E432.78377
G0 F3600 X149.344 Y116.676
G1 F1800 X63.323 Y30.655 E439.72508
G0 F3600 X62.333 Y30.655
G1 F1800 X149.344 Y117.666 E446.74627
G0 F3600 X149.344 Y118.656
G1 F1800 X61.343 Y30.655 E453.84735
G0 F3600 X60.353 Y30.655
G1 F1800 X149.344 Y119.646 E461.02832
G0 F3600 X149.344 Y120.635
G1 F1800 X59.363 Y30.655 E468.28913
G0 F3600 X58.373 Y30.655
G1 F1800 X149.344 Y121.625 E475.62983
G0 F3600 X149.344 Y122.615
G1 F1800 X57.383 Y30.655 E483.05041
G0 F3600 X56.393 Y30.655
G1 F1800 X149.344 Y123.605 E490.55088
G0 F3600 X149.344 Y124.595
G1 F1800 X55.403 Y30.655 E498.13124
G0 F3600 X54.413 Y30.655
G1 F1800 X149.344 Y125.585 E505.79148
G0 F3600 X149.344 Y126.575
G1 F1800 X53.424 Y30.655 E513.53157
G0 F3600 X52.434 Y30.655
G1 F1800 X149.344 Y127.565 E521.35155
G0 F3600 X149.344 Y128.555
G1 F1800 X51.444 Y30.655 E529.25141
G0 F3600 X50.454 Y30.655
G1 F1800 X149.344 Y129.545 E537.23116
G0 F3600 X149.344 Y130.535
G1 F1800 X49.464 Y30.655 E545.29079
G0 F3600 X48.474 Y30.655
G1 F1800 X149.344 Y131.525 E553.43031
G0 F3600 X149.344 Y132.515
G1 F1800 X47.484 Y30.655 E561.64972
G0 F3600 X46.494 Y30.655
G1 F1800 X149.344 Y133.505 E569.94901
G0 F3600 X149.344 Y134.495
G1 F1800 X45.504 Y30.655 E578.32819
G0 F3600 X44.514 Y30.655
G1 F1800 X149.344 Y135.485 E586.78725
G0 F3600 X149.344 Y136.475
G1 F1800 X43.524 Y30.655 E595.3262
G0 F3600 X42.534 Y30.655
G1 F1800 X149.344 Y137.465 E603.94504
G0 F3600 X149.344 Y138.455
G1 F1800 X41.544 Y30.655 E612.64377
G0 F3600 X40.554 Y30.655
G1 F1800 X149.344 Y139.444 E621.42234
G0 F3600 X149.344 Y140.434
G1 F1800 X39.564 Y30.655 E630.28079
G0 F3600 X38.574 Y30.655
G1 F1800 X149.344 Y141.424 E639.21913
G0 F3600 X149.344 Y142.414
G1 F1800 X37.584 Y30.655 E648.23736
G0 F3600 X36.594 Y30.655
G1 F1800 X149.344 Y143.404 E657.33548
G0 F3600 X149.294 Y144.344
G1 F1800 X35.654 Y30.704 E666.50545
G0 F3600 X35.654 Y31.694
G1 F1800 X148.304 Y144.344 E675.59553
G0 F3600 X147.314 Y144.344
G1 F1800 X35.654 Y32.684 E684.60573
G0 F3600 X35.654 Y33.674
G1 F1800 X146.324 Y144.344 E693.53605
G0 F3600 X145.334 Y144.344
G1 F1800 X35.654 Y34.664 E702.38647
G0 F3600 X35.654 Y35.654
G1 F1800 X144.344 Y144.344 E711.15701
G0 F3600 X143.354 Y144.344
G1 F1800 X35.654 Y36.644 E719.84767
G0 F3600 X35.654 Y37.634
G1 F1800 X142.364 Y144.344 E728.45844
G0 F3600 X141.374 Y144.344
G1 F1800 X35.654 Y38.624 E736.98932
G0 F3600 X35.654 Y39.614
G1 F1800 X140.384 Y144.344 E745.44032
G0 F3600 X139.394 Y144.344
G1 F1800 X35.654 Y40.604 E753.81142
G0 F3600 X35.654 Y41.594
G1 F1800 X138.404 Y144.344 E762.10265
G0 F3600 X137.414 Y144.344
G1 F1800 X35.654 Y42.584 E770.31398
G0 F3600 X35.654 Y43.574
G1 F1800 X136.424 Y144.344 E778.44544
G0 F3600 X135.434 Y144.344
G1 F1800 X35.654 Y44.563 E786.49704
G0 F3600 X35.654 Y45.553
G1 F1800 X134.445 Y144.344 E794.4688
G0 F3600 X133.455 Y144.344
G1 F1800 X35.654 Y46.543 E802.36067
G0 F3600 X35.654 Y47.533
G1 F1800 X132.465 Y144.344 E810.17266
G0 F3600 X131.475 Y144.344
G1 F1800 X35.654 Y48.523 E817.90476
G0 F3600 X35.654 Y49.513
G1 F1800 X130.485 Y144.344 E825.55697
G0 F3600 X129.495 Y144.344
G1 F1800 X35.654 Y50.503 E833.1293
G0 F3600 X35.654 Y51.493
G1 F1800 X128.505 Y144.344 E840.62174
G0 F3600 X127.515 Y144.344
G1 F1800 X35.654 Y52.483 E848.0343
G0 F3600 X35.654 Y53.473
G1 F1800 X126.525 Y144.344 E855.36697
G0 F3600 X125.535 Y144.344
G1 F1800 X35.654 Y54.463 E862.61975
G0 F3600 X35.654 Y55.453
G1 F1800 X124.545 Y144.344 E869.79265
G0 F3600 X123.555 Y144.344
G1 F1800 X35.654 Y56.443 E876.88566
G0 F3600 X35.654 Y57.433
G1 F1800 X122.565 Y144.344 E883.89878
G0 F3600 X121.575 Y144.344
G1 F1800 X35.654 Y58.423 E890.83202
G0 F3600 X35.654 Y59.413
G1 F1800 X120.585 Y144.344 E897.68537
G0 F3600 X119.595 Y144.344
G1 F1800 X35.654 Y60.403 E904.45884
G0 F3600 X35.654 Y61.393
G1 F1800 X118.605 Y144.344 E911.15242
G0 F3600 X117.615 Y144.344
G1 F1800 X35.654 Y62.383 E917.76611
G0 F3600 X35.654 Y63.373
G1 F1800 X116.625 Y144.344 E924.29992
G0 F3600 X115.636 Y144.344
G1 F1800 X35.654 Y64.362 E930.75392
G0 F3600 X35.654 Y65.352
G1 F1800 X114.646 Y144.344 E937.12803
G0 F3600 X113.656 Y144.344
G1 F1800 X35.654 Y66.342 E943.42226
G0 F3600 X35.654 Y67.332
G1 F1800 X112.666 Y144.344 E949.6366
G0 F3600 X111.676 Y144.344
G1 F1800 X35.654 Y68.322 E955.77106
G0 F3600 X35.654 Y69.312
G1 F1800 X110.686 Y144.344 E961.82563
G0 F3600 X109.696 Y144.344
G1 F1800 X35.654 Y70.302 E967.80031
G0 F3600 X35.654 Y71.292
G1 F1800 X108.706 Y144.344 E973.69511
G0 F3600 X107.716 Y144.344
G1 F1800 X35.654 Y72.282 E979.51002
G0 F3600 X35.654 Y73.272
G1 F1800 X106.726 Y144.344 E985.24505
G0 F3600 X105.736 Y144.344
G1 F1800 X35.654 Y74.262 E990.90018
G0 F3600 X35.654 Y75.252
G1 F1800 X104.746 Y144.344 E996.47544
G0 F3600 X103.756 Y144.344
G1 F1800 X35.654 Y76.242 E1001.9708
G0 F3600 X35.654 Y77.232
G1 F1800 X102.766 Y144.344 E1007.38628
G0 F3600 X101.776 Y144.344
G1 F1800 X35.654 Y78.222 E1012.72188
G0 F3600 X35.654 Y79.212
G1 F1800 X100.786 Y144.344 E1017.97759
G0 F3600 X99.796 Y144.344
G1 F1800 X35.654 Y80.202 E1023.15341
G0 F3600 X35.654 Y81.192
G1 F1800 X98.806 Y144.344 E1028.24934
G0 F3600 X97.816 Y144.344
G1 F1800 X35.654 Y82.182 E1033.26539
G0 F3600 X35.654 Y83.172
G1 F1800 X96.826 Y144.344 E1038.20155
G0 F3600 X95.837 Y144.344
G1 F1800 X35.654 Y84.161 E1043.05791
G0 F3600 X35.654 Y85.151
G1 F1800 X94.847 Y144.344 E1047.83438
G0 F3600 X93.857 Y144.344
G1 F1800 X35.654 Y86.141 E1052.53097
G0 F3600 X35.654 Y87.131
G1 F1800 X92.867 Y144.344 E1057.14766
G0 F3600 X91.877 Y144.344
G1 F1800 X35.654 Y88.121 E1061.68448
G0 F3600 X35.654 Y89.111
G1 F1800 X90.887 Y144.344 E1066.1414
G0 F3600 X89.897 Y144.344
G1 F1800 X35.654 Y90.101 E1070.51844
G0 F3600 X35.654 Y91.091
G1 F1800 X88.907 Y144.344 E1074.8156
G0 F3600 X87.917 Y144.344
G1 F1800 X35.654 Y92.081 E1079.03286
G0 F3600 X35.654 Y93.071
G1 F1800 X86.927 Y144.344 E1083.17024
G0 F3600 X85.937 Y144.344
G1 F1800 X35.654 Y94.061 E1087.22774
G0 F3600 X35.654 Y95.051
G1 F1800 X84.947 Y144.344 E1091.20535
G0 F3600 X83.957 Y144.344
G1 F1800 X35.654 Y96.041 E1095.10307
G0 F3600 X35.654 Y97.031
G1 F1800 X82.967 Y144.344 E1098.9209
G0 F3600 X81.977 Y144.344
G1 F1800 X35.654 Y98.021 E1102.65885
G0 F3600 X35.654 Y99.011
G1 F1800 X80.987 Y144.344 E1106.31692
G0 F3600 X79.997 Y144.344
G1 F1800 X35.654 Y100.001 E1109.8951
G0 F3600 X35.654 Y100.991
G1 F1800 X79.007 Y144.344 E1113.39339
G0 F3600 X78.017 Y144.344
G1 F1800 X35.654 Y101.981 E1116.81179
G0 F3600 X35.654 Y102.971
G1 F1800 X77.027 Y144.344 E1120.15031
G0 F3600 X76.038 Y144.344
G1 F1800 X35.654 Y103.96 E1123.40902
G0 F3600 X35.654 Y104.95
G1 F1800 X75.048 Y144.344 E1126.58785
G0 F3600 X74.058 Y144.344
G1 F1800 X35.654 Y105.94 E1129.68679
G0 F3600 X35.654 Y106.93
G1 F1800 X73.068 Y144.344 E1132.70584
G0 F3600 X72.078 Y144.344
G1 F1800 X35.654 Y107.92 E1135.64501
G0 F3600 X35.654 Y108.91
G1 F1800 X71.088 Y144.344 E1138.50429
G0 F3600 X70.098 Y144.344
G1 F1800 X35.654 Y109.9 E1141.28369
G0 F3600 X35.654 Y110.89
G1 F1800 X69.108 Y144.344 E1143.9832
G0 F3600 X68.118 Y144.344
G1 F1800 X35.654 Y111.88 E1146.60282
G0 F3600 X35.654 Y112.87
G1 F1800 X67.128 Y144.344 E1149.14256
G0 F3600 X66.138 Y144.344
G1 F1800 X35.654 Y113.86 E1151.60241
G0 F3600 X35.654 Y114.85
G1 F1800 X65.148 Y144.344 E1153.98237
G0 F3600 X64.158 Y144.344
G1 F1800 X35.654 Y115.84 E1156.28245
G0 F3600 X35.654 Y116.83
G1 F1800 X63.168 Y144.344 E1158.50264
G0 F3600 X62.178 Y144.344
G1 F1800 X35.654 Y117.82 E1160.64295
G0 F3600 X35.654 Y118.81
G1 F1800 X61.188 Y144.344 E1162.70337
G0 F3600 X60.198 Y144.344
G1 F1800 X35.654 Y119.8 E1164.6839
G0 F3600 X35.654 Y120.79
G1 F1800 X59.208 Y144.344 E1166.58455
G0 F3600 X58.218 Y144.344
G1 F1800 X35.654 Y121.78 E1168.40531
G0 F3600 X35.654 Y122.77
G1 F1800 X57.228 Y144.344 E1170.14618
G0 F3600 X56.239 Y144.344
G1 F1800 X35.654 Y123.759 E1171.80725
G0 F3600 X35.654 Y124.749
G1 F1800 X55.249 Y144.344 E1173.38844
G0 F3600 X54.259 Y144.344
G1 F1800 X35.654 Y125.739 E1174.88973
G0 F3600 X35.654 Y126.729
G1 F1800 X53.269 Y144.344 E1176.31114
G0 F3600 X52.279 Y144.344
G1 F1800 X35.654 Y127.719 E1177.65267
G0 F3600 X35.654 Y128.709
G1 F1800 X51.289 Y144.344 E1178.9143
G0 F3600 X50.299 Y144.344
G1 F1800 X35.654 Y129.699 E1180.09606
G0 F3600 X35.654 Y130.689
G1 F1800 X49.309 Y144.344 E1181.19792
G0 F3600 X48.319 Y144.344
G1 F1800 X35.654 Y131.679 E1182.2199
G0 F3600 X35.654 Y132.669
G1 F1800 X47.329 Y144.344 E1183.16199
G0 F3600 X46.339 Y144.344
