;FLAVOR:Marlin
;TIME:11384
;Filament used: 121.068m
;Layer height: 1
;Generated with Cura_SteamEngine 4.0.0
M82 ;absolute extrusion mode
M98 P0:/sys/startprint.g

G92 E0
G10
;LAYER_COUNT:121
;LAYER:0
M107
G0 F3600 X30.209 Y25.444 Z1
;TYPE:SKIRT
G11
G1 F1800 X30.601 Y25.073 E0.111
G1 X31.045 Y24.764 E0.22225
G1 X31.529 Y24.524 E0.33336
G1 X32.043 Y24.357 E0.44451
G1 X32.576 Y24.268 E0.55564
G1 X32.909 Y24.253 E0.6242
G1 X152.091 Y24.254 E25.13542
G1 X152.63 Y24.294 E25.24657
G1 X153.157 Y24.413 E25.35769
G1 X153.661 Y24.608 E25.46883
G1 X154.131 Y24.876 E25.5801
G1 X154.556 Y25.21 E25.69127
G1 X154.927 Y25.603 E25.80242
G1 X155.236 Y26.046 E25.9135
G1 X155.476 Y26.53 E26.02461
G1 X155.643 Y27.044 E26.13576
G1 X155.732 Y27.577 E26.24689
G1 X155.747 Y27.91 E26.31545
G1 X155.747 Y147.091 E50.82646
G1 X155.707 Y147.63 E50.93762
G1 X155.588 Y148.157 E51.04873
G1 X155.393 Y148.661 E51.15987
G1 X155.125 Y149.131 E51.27114
G1 X154.791 Y149.556 E51.38231
G1 X154.399 Y149.927 E51.49331
G1 X153.955 Y150.236 E51.60456
G1 X153.471 Y150.476 E51.71567
G1 X152.957 Y150.643 E51.82682
G1 X152.424 Y150.732 E51.93795
G1 X152.091 Y150.747 E52.00651
G1 X32.909 Y150.747 E76.51773
G1 X32.37 Y150.707 E76.62889
G1 X31.843 Y150.588 E76.74
G1 X31.339 Y150.393 E76.85114
G1 X30.869 Y150.125 E76.96241
G1 X30.444 Y149.791 E77.07358
G1 X30.073 Y149.399 E77.18458
G1 X29.764 Y148.955 E77.29583
G1 X29.524 Y148.471 E77.40694
G1 X29.357 Y147.957 E77.51809
G1 X29.268 Y147.424 E77.62922
G1 X29.253 Y147.091 E77.69778
G1 X29.253 Y27.909 E102.209
G1 X29.293 Y27.37 E102.32015
G1 X29.412 Y26.843 E102.43127
G1 X29.607 Y26.339 E102.54241
G1 X29.875 Y25.869 E102.65368
G1 X30.209 Y25.444 E102.76485
G10
;MESH:xyzCalibration_cube.stl
G0 F3600 X34.882 Y29.882
G0 X150.062 Y145.062
G0 X151.444 Y146.444
;TYPE:WALL-OUTER
G11
G1 F1800 X33.556 Y146.444 E127.00994
G1 X33.556 Y28.556 E151.25503
G1 X151.444 Y28.556 E175.50012
G1 X151.444 Y146.444 E199.74521
G0 F3600 X150.694 Y146.444
G0 X150.132 Y145.132
;TYPE:WALL-INNER
G1 F1800 X34.868 Y145.132 E223.45065
G1 X34.868 Y29.868 E247.15608
G1 X150.132 Y29.868 E270.86152
G1 X150.132 Y145.132 E294.56695
G0 F3600 X148.82 Y143.82
G1 F1800 X36.18 Y143.82 E317.73273
G1 X36.18 Y31.18 E340.89851
G1 X148.82 Y31.18 E364.06428
G1 X148.82 Y143.82 E387.23006
G0 F3600 X147.518 Y142.518
;TYPE:SKIN
G1 F1800 X37.482 Y142.518 E409.86029
G1 X37.482 Y32.482 E432.49053
G1 X147.518 Y32.482 E455.12076
G1 X147.518 Y142.518 E477.75099
G0 F3600 X146.927 Y33.745
G1 F1800 X146.254 Y33.072 E477.94674
G0 F3600 X144.398 Y33.072
G1 F1800 X146.927 Y35.6 E478.68215
G0 F3600 X146.927 Y37.456
G1 F1800 X142.543 Y33.072 E479.95724
G0 F3600 X140.688 Y33.072
G1 F1800 X146.927 Y39.311 E481.77185
G0 F3600 X146.927 Y41.167
G1 F1800 X138.832 Y33.072 E484.12628
G0 F3600 X136.977 Y33.072
G1 F1800 X146.927 Y43.022 E487.02024
G0 F3600 X146.927 Y44.877
G1 F1800 X135.121 Y33.072 E490.45387
G0 F3600 X133.266 Y33.072
G1 F1800 X146.927 Y46.733 E494.42718
G0 F3600 X146.927 Y48.588
G1 F1800 X131.41 Y33.072 E498.94015
G0 F3600 X129.555 Y33.072
G1 F1800 X146.927 Y50.444 E503.9928
G0 F3600 X146.927 Y52.299
G1 F1800 X127.699 Y33.072 E509.58512
G0 F3600 X125.844 Y33.072
G1 F1800 X146.927 Y54.155 E515.71711
G0 F3600 X146.927 Y56.01
G1 F1800 X123.989 Y33.072 E522.38863
G0 F3600 X122.133 Y33.072
G1 F1800 X146.927 Y57.866 E529.59997
G0 F3600 X146.927 Y59.721
G1 F1800 X120.278 Y33.072 E537.35083
G0 F3600 X118.422 Y33.072
G1 F1800 X146.927 Y61.576 E545.64137
G0 F3600 X146.927 Y63.432
G1 F1800 X116.567 Y33.072 E554.47158
G0 F3600 X114.711 Y33.072
G1 F1800 X146.927 Y65.287 E563.84146
G0 F3600 X146.927 Y67.143
G1 F1800 X112.856 Y33.072 E573.75102
G0 F3600 X111 Y33.072
G1 F1800 X146.927 Y68.998 E584.20024
G0 F3600 X146.927 Y70.854
G1 F1800 X109.145 Y33.072 E595.18914
G0 F3600 X107.29 Y33.072
G1 F1800 X146.927 Y72.709 E606.71757
G0 F3600 X146.927 Y74.565
G1 F1800 X105.434 Y33.072 E618.78581
G0 F3600 X103.579 Y33.072
G1 F1800 X146.927 Y76.42 E631.39358
G0 F3600 X146.927 Y78.276
G1 F1800 X101.723 Y33.072 E644.54117
G0 F3600 X99.868 Y33.072
G1 F1800 X146.927 Y80.131 E658.22829
G0 F3600 X146.927 Y81.986
G1 F1800 X98.012 Y33.072 E672.45507
G0 F3600 X96.157 Y33.072
G1 F1800 X146.927 Y83.842 E687.22153
G0 F3600 X146.927 Y85.697
G1 F1800 X94.301 Y33.072 E702.52767
G0 F3600 X92.446 Y33.072
G1 F1800 X146.927 Y87.553 E718.37347
G0 F3600 X146.927 Y89.408
G1 F1800 X90.59 Y33.072 E734.75895
G0 F3600 X88.735 Y33.072
G1 F1800 X146.927 Y91.264 E751.6841
G0 F3600 X146.927 Y93.119
G1 F1800 X86.88 Y33.072 E769.14877
G0 F3600 X85.024 Y33.072
G1 F1800 X146.927 Y94.975 E787.15327
G0 F3600 X146.927 Y96.83
G1 F1800 X83.169 Y33.072 E805.69729
G0 F3600 X81.313 Y33.072
G1 F1800 X146.927 Y98.685 E824.78098
G0 F3600 X146.927 Y100.541
G1 F1800 X79.458 Y33.072 E844.40435
G0 F3600 X77.602 Y33.072
G1 F1800 X146.927 Y102.396 E864.56739
G0 F3600 X146.927 Y104.252
G1 F1800 X75.747 Y33.072 E885.2701
G0 F3600 X73.891 Y33.072
G1 F1800 X146.927 Y106.107 E906.51248
G0 F3600 X146.927 Y107.963
G1 F1800 X72.036 Y33.072 E928.29454
G0 F3600 X70.181 Y33.072
G1 F1800 X146.927 Y109.818 E950.61612
G0 F3600 X146.927 Y111.674
G1 F1800 X68.325 Y33.072 E973.47752
G0 F3600 X66.47 Y33.072
G1 F1800 X146.927 Y113.529 E996.87845
G0 F3600 X146.927 Y115.384
G1 F1800 X64.614 Y33.072 E1020.81905
G0 F3600 X62.759 Y33.072
G1 F1800 X146.927 Y117.24 E1045.29932
G0 F3600 X146.927 Y119.095
G1 F1800 X60.903 Y33.072 E1070.31926
G0 F3600 X59.048 Y33.072
G1 F1800 X146.927 Y120.951 E1095.87888
G0 F3600 X146.927 Y122.806
G1 F1800 X57.192 Y33.072 E1121.97817
G0 F3600 X55.337 Y33.072
G1 F1800 X146.927 Y124.662 E1148.61713
G0 F3600 X146.927 Y126.517
G1 F1800 X53.482 Y33.072 E1175.79562
G0 F3600 X51.626 Y33.072
G1 F1800 X146.927 Y128.373 E1203.51393
G0 F3600 X146.927 Y130.228
G1 F1800 X49.771 Y33.072 E1231.77176
G0 F3600 X47.915 Y33.072
G1 F1800 X146.927 Y132.084 E1260.56941
G0 F3600 X146.927 Y133.939
G1 F1800 X46.06 Y33.072 E1289.90659
G0 F3600 X44.204 Y33.072
G1 F1800 X146.927 Y135.794 E1319.78344
G0 F3600 X146.927 Y137.65
G1 F1800 X42.349 Y33.072 E1350.19996
G0 F3600 X40.493 Y33.072
G1 F1800 X146.927 Y139.505 E1381.15616
G0 F3600 X146.927 Y141.361
G1 F1800 X38.638 Y33.072 E1412.65202
G0 F3600 X38.071 Y34.36
G1 F1800 X145.638 Y141.927 E1443.9379
G0 F3600 X143.783 Y141.927
G1 F1800 X38.071 Y36.215 E1474.68424
G0 F3600 X38.071 Y38.071
G1 F1800 X141.927 Y141.927 E1504.89077
G0 F3600 X140.072 Y141.927
G1 F1800 X38.071 Y39.926 E1534.55777
G0 F3600 X38.071 Y41.782
G1 F1800 X138.216 Y141.927 E1563.68496
G0 F3600 X136.361 Y141.927
G1 F1800 X38.071 Y43.637 E1592.27262
G0 F3600 X38.071 Y45.493
G92 E0
G1 F1800 X134.505 Y141.927 E28.04784
G0 F3600 X132.65 Y141.927
G1 F1800 X38.071 Y47.348 E55.55615
G0 F3600 X38.071 Y49.204
G1 F1800 X130.794 Y141.927 E82.52465
G0 F3600 X128.939 Y141.927
G1 F1800 X38.071 Y51.059 E108.95361
G0 F3600 X38.071 Y52.914
G1 F1800 X127.084 Y141.927 E134.84306
G0 F3600 X125.228 Y141.927
G1 F1800 X38.071 Y54.77 E160.19268
G0 F3600 X38.071 Y56.625
G1 F1800 X123.373 Y141.927 E185.00277
G0 F3600 X121.517 Y141.927
G1 F1800 X38.071 Y58.481 E209.27305
G0 F3600 X38.071 Y60.336
G1 F1800 X119.662 Y141.927 E233.0038
G0 F3600 X117.806 Y141.927
G1 F1800 X38.071 Y62.192 E256.19474
G0 F3600 X38.071 Y64.047
G1 F1800 X115.951 Y141.927 E278.84614
G0 F3600 X114.095 Y141.927
G1 F1800 X38.071 Y65.903 E300.95773
G0 F3600 X38.071 Y67.758
G1 F1800 X112.24 Y141.927 E322.52979
G0 F3600 X110.385 Y141.927
G1 F1800 X38.071 Y69.613 E343.56233
G0 F3600 X38.071 Y71.469
G1 F1800 X108.529 Y141.927 E364.05505
G0 F3600 X106.674 Y141.927
G1 F1800 X38.071 Y73.324 E384.00824
G0 F3600 X38.071 Y75.18
G1 F1800 X104.818 Y141.927 E403.42161
G0 F3600 X102.963 Y141.927
G1 F1800 X38.071 Y77.035 E422.29545
G0 F3600 X38.071 Y78.891
G1 F1800 X101.107 Y141.927 E440.62948
G0 F3600 X99.252 Y141.927
G1 F1800 X38.071 Y80.746 E458.42398
G0 F3600 X38.071 Y82.602
G1 F1800 X97.396 Y141.927 E475.67866
G0 F3600 X95.541 Y141.927
G1 F1800 X38.071 Y84.457 E492.39382
G0 F3600 X38.071 Y86.312
G1 F1800 X93.685 Y141.927 E508.5693
G0 F3600 X91.83 Y141.927
G1 F1800 X38.071 Y88.168 E524.20511
G0 F3600 X38.071 Y90.023
G1 F1800 X89.975 Y141.927 E539.3014
G0 F3600 X88.119 Y141.927
G1 F1800 X38.071 Y91.879 E553.85786
G0 F3600 X38.071 Y93.734
G1 F1800 X86.264 Y141.927 E567.8748
G0 F3600 X84.408 Y141.927
G1 F1800 X38.071 Y95.59 E581.35193
G0 F3600 X38.071 Y97.445
G1 F1800 X82.553 Y141.927 E594.28952
G0 F3600 X80.697 Y141.927
G1 F1800 X38.071 Y99.301 E606.6873
G0 F3600 X38.071 Y101.156
G1 F1800 X78.842 Y141.927 E618.54555
G0 F3600 X76.986 Y141.927
G1 F1800 X38.071 Y103.012 E629.86398
G0 F3600 X38.071 Y104.867
G1 F1800 X75.131 Y141.927 E640.64288
G0 F3600 X73.276 Y141.927
G1 F1800 X38.071 Y106.722 E650.88226
G0 F3600 X38.071 Y108.578
G1 F1800 X71.42 Y141.927 E660.58182
G0 F3600 X69.565 Y141.927
G1 F1800 X38.071 Y110.433 E669.74186
G0 F3600 X38.071 Y112.289
G1 F1800 X67.709 Y141.927 E678.36207
G0 F3600 X65.854 Y141.927
G1 F1800 X38.071 Y114.144 E686.44276
G0 F3600 X38.071 Y116
G1 F1800 X63.998 Y141.927 E693.98363
G0 F3600 X62.143 Y141.927
G1 F1800 X38.071 Y117.855 E700.98497
G0 F3600 X38.071 Y119.711
G1 F1800 X60.287 Y141.927 E707.4465
G0 F3600 X58.432 Y141.927
G1 F1800 X38.071 Y121.566 E713.3685
G0 F3600 X38.071 Y123.421
G1 F1800 X56.577 Y141.927 E718.75097
G0 F3600 X54.721 Y141.927
G1 F1800 X38.071 Y125.277 E723.59363
G0 F3600 X38.071 Y127.132
G1 F1800 X52.866 Y141.927 E727.89675
G0 F3600 X51.01 Y141.927
G1 F1800 X38.071 Y128.988 E731.66006
G0 F3600 X38.071 Y130.843
G1 F1800 X49.155 Y141.927 E734.88385
G0 F3600 X47.299 Y141.927
G1 F1800 X38.071 Y132.699 E737.56781
G0 F3600 X38.071 Y134.554
G1 F1800 X45.444 Y141.927 E739.71225
G0 F3600 X43.588 Y141.927
G1 F1800 X38.071 Y136.41 E741.31687
G0 F3600 X38.071 Y138.265
G1 F1800 X41.733 Y141.927 E742.38196
G0 F3600 X39.877 Y141.927
G1 F1800 X38.071 Y140.12 E742.90738
;MESH:NONMESH
G0 F3600 X150.062 Y145.062
G0 X151.844 Y146.844
;TIME_ELAPSED:392.734947
;LAYER:1
M106 S255
;MESH:xyzCalibration_cube.stl
G0 F5400 X151.844 Y146.844 Z2
;TYPE:WALL-OUTER
G1 F1800 X33.156 Y146.844 E767.317
G1 X33.156 Y28.156 E791.72663
G1 X151.844 Y28.156 E816.13625
G1 X151.844 Y146.844 E840.54587
G0 F5400 X151.094 Y146.844
G0 X150.532 Y145.532
;TYPE:WALL-INNER
G1 F2700 X34.468 Y145.532 E864.41583
G1 X34.468 Y29.468 E888.2858
G1 X150.532 Y29.468 E912.15576
G1 X150.532 Y145.532 E936.02572
G0 F5400 X149.22 Y144.22
G1 F2700 X35.78 Y144.22 E959.35603
G1 X35.78 Y30.78 E982.68634
G1 X149.22 Y30.78 E1006.01665
G1 X149.22 Y144.22 E1029.34695
G0 F5400 X147.908 Y142.908
G1 F2700 X37.092 Y142.908 E1052.1376
G1 X37.092 Y32.092 E1074.92825
G1 X147.908 Y32.092 E1097.7189
G1 X147.908 Y142.908 E1120.50955
G0 F5400 X146.606 Y141.606
;TYPE:SKIN
G1 F1800 X38.394 Y141.606 E1142.76466
G1 X38.394 Y33.394 E1165.01976
G1 X146.606 Y33.394 E1187.27487
G1 X146.606 Y141.606 E1209.52997
G0 F5400 X146.015 Y139.723
G1 F1800 X144.722 Y141.016 E1209.90604
G0 F5400 X142.867 Y141.016
G1 F1800 X146.015 Y137.868 E1210.82164
G0 F5400 X146.015 Y136.012
G1 F1800 X141.011 Y141.016 E1212.27705
G0 F5400 X139.156 Y141.016
G1 F1800 X146.015 Y134.157 E1214.27199
G0 F5400 X146.015 Y132.301
G1 F1800 X137.301 Y141.016 E1216.80661
G0 F5400 X135.445 Y141.016
G1 F1800 X146.015 Y130.446 E1219.88089
G0 F5400 X146.015 Y128.59
G1 F1800 X133.59 Y141.016 E1223.49485
G0 F5400 X131.734 Y141.016
G1 F1800 X146.015 Y126.735 E1227.64848
G0 F5400 X146.015 Y124.88
G1 F1800 X129.879 Y141.016 E1232.34164
G0 F5400 X128.023 Y141.016
G1 F1800 X146.015 Y123.024 E1237.57461
G0 F5400 X146.015 Y121.169
G1 F1800 X126.168 Y141.016 E1243.34712
G0 F5400 X124.312 Y141.016
G1 F1800 X146.015 Y119.313 E1249.65943
G0 F5400 X146.015 Y117.458
G1 F1800 X122.457 Y141.016 E1256.51128
G0 F5400 X120.602 Y141.016
G1 F1800 X146.015 Y115.602 E1263.9028
G0 F5400 X146.015 Y113.747
G1 F1800 X118.746 Y141.016 E1271.83399
G0 F5400 X116.891 Y141.016
G1 F1800 X146.015 Y111.891 E1280.30486
G0 F5400 X146.015 Y110.036
G1 F1800 X115.035 Y141.016 E1289.31539
G0 F5400 X113.18 Y141.016
G1 F1800 X146.015 Y108.18 E1298.8656
G0 F5400 X146.015 Y106.325
G1 F1800 X111.324 Y141.016 E1308.95548
G0 F5400 X109.469 Y141.016
G1 F1800 X146.015 Y104.47 E1319.58489
G0 F5400 X146.015 Y102.614
G1 F1800 X107.613 Y141.016 E1330.75412
G0 F5400 X105.758 Y141.016
G1 F1800 X146.015 Y100.759 E1342.46287
G0 F5400 X146.015 Y98.903
G1 F1800 X103.902 Y141.016 E1354.71144
G0 F5400 X102.047 Y141.016
G1 F1800 X146.015 Y97.048 E1367.49954
G0 F5400 X146.015 Y95.192
G1 F1800 X100.192 Y141.016 E1380.82731
G0 F5400 X98.336 Y141.016
G1 F1800 X146.015 Y93.337 E1394.69475
G0 F5400 X146.015 Y91.481
G1 F1800 X96.481 Y141.016 E1409.10187
G0 F5400 X94.625 Y141.016
G1 F1800 X146.015 Y89.626 E1424.04865
G0 F5400 X146.015 Y87.771
G1 F1800 X92.77 Y141.016 E1439.53497
G0 F5400 X90.914 Y141.016
G1 F1800 X146.015 Y85.915 E1455.5611
G0 F5400 X146.015 Y84.06
G1 F1800 X89.059 Y141.016 E1472.12676
G0 F5400 X87.203 Y141.016
G1 F1800 X146.015 Y82.204 E1489.23223
G0 F5400 X146.015 Y80.349
G1 F1800 X85.348 Y141.016 E1506.87724
G0 F5400 X83.493 Y141.016
G1 F1800 X146.015 Y78.493 E1525.06191
G0 F5400 X146.015 Y76.638
G1 F1800 X81.637 Y141.016 E1543.78626
G0 F5400 X79.782 Y141.016
G1 F1800 X146.015 Y74.782 E1563.05028
G0 F5400 X146.015 Y72.927
G1 F1800 X77.926 Y141.016 E1582.85398
G0 F5400 X76.071 Y141.016
G92 E0
G1 F1800 X146.015 Y71.072 E20.34322
G0 F5400 X146.015 Y69.216
G1 F1800 X74.215 Y141.016 E41.22626
G0 F5400 X72.36 Y141.016
G1 F1800 X146.015 Y67.361 E62.64882
G0 F5400 X146.015 Y65.505
G1 F1800 X70.504 Y141.016 E84.61121
G0 F5400 X68.649 Y141.016
G1 F1800 X146.015 Y63.65 E107.11311
G0 F5400 X146.015 Y61.794
G1 F1800 X66.794 Y141.016 E130.1547
G0 F5400 X64.938 Y141.016
G1 F1800 X146.015 Y59.939 E153.73595
G0 F5400 X146.015 Y58.083
G1 F1800 X63.083 Y141.016 E177.85688
G0 F5400 X61.227 Y141.016
G1 F1800 X146.015 Y56.228 E202.51748
G0 F5400 X146.015 Y54.372
G1 F1800 X59.372 Y141.016 E227.71775
G0 F5400 X57.516 Y141.016
G1 F1800 X146.015 Y52.517 E253.45769
G0 F5400 X146.015 Y50.662
G1 F1800 X55.661 Y141.016 E279.73716
G0 F5400 X53.805 Y141.016
G1 F1800 X146.015 Y48.806 E306.55645
G0 F5400 X146.015 Y46.951
G1 F1800 X51.95 Y141.016 E333.91527
G0 F5400 X50.094 Y141.016
G1 F1800 X146.015 Y45.095 E361.8139
G0 F5400 X146.015 Y43.24
G1 F1800 X48.239 Y141.016 E390.25206
G0 F5400 X46.384 Y141.016
G1 F1800 X146.015 Y41.384 E419.22989
G0 F5400 X146.015 Y39.529
G1 F1800 X44.528 Y141.016 E448.7474
G0 F5400 X42.673 Y141.016
G1 F1800 X146.015 Y37.673 E478.80458
G0 F5400 X146.015 Y35.818
G1 F1800 X40.817 Y141.016 E509.40143
G0 F5400 X38.984 Y140.994
G1 F1800 X145.994 Y33.984 E540.5253
G0 F5400 X144.138 Y33.984
G1 F1800 X38.984 Y139.138 E571.10935
G0 F5400 X38.984 Y137.283
G1 F1800 X142.283 Y33.984 E601.15387
G0 F5400 X140.427 Y33.984
G1 F1800 X38.984 Y135.427 E630.65858
G0 F5400 X38.984 Y133.572
G1 F1800 X138.572 Y33.984 E659.62376
G0 F5400 X136.716 Y33.984
G1 F1800 X38.984 Y131.717 E688.04927
G0 F5400 X38.984 Y129.861
G1 F1800 X134.861 Y33.984 E715.93511
G0 F5400 X133.006 Y33.984
G1 F1800 X38.984 Y128.006 E743.28142
G0 F5400 X38.984 Y126.15
G1 F1800 X131.15 Y33.984 E770.08791
G0 F5400 X129.295 Y33.984
G1 F1800 X38.984 Y124.295 E796.35487
G0 F5400 X38.984 Y122.439
G1 F1800 X127.439 Y33.984 E822.08202
G0 F5400 X125.584 Y33.984
G1 F1800 X38.984 Y120.584 E847.26964
G0 F5400 X38.984 Y118.728
G1 F1800 X123.728 Y33.984 E871.91744
G0 F5400 X121.873 Y33.984
G1 F1800 X38.984 Y116.873 E896.02571
G0 F5400 X38.984 Y115.017
G1 F1800 X120.017 Y33.984 E919.59417
G0 F5400 X118.162 Y33.984
G1 F1800 X38.984 Y113.162 E942.6231
G0 F5400 X38.984 Y111.307
G1 F1800 X116.307 Y33.984 E965.1125
G0 F5400 X114.451 Y33.984
G1 F1800 X38.984 Y109.451 E987.06209
G0 F5400 X38.984 Y107.596
G1 F1800 X112.596 Y33.984 E1008.47215
G0 F5400 X110.74 Y33.984
G1 F1800 X38.984 Y105.74 E1029.34239
G0 F5400 X38.984 Y103.885
G1 F1800 X108.885 Y33.984 E1049.6731
G0 F5400 X107.029 Y33.984
G1 F1800 X38.984 Y102.029 E1069.464
G0 F5400 X38.984 Y100.174
G1 F1800 X105.174 Y33.984 E1088.71536
G0 F5400 X103.318 Y33.984
G1 F1800 X38.984 Y98.318 E1107.42692
G0 F5400 X38.984 Y96.463
G1 F1800 X101.463 Y33.984 E1125.59894
