;FLAVOR:Marlin
;TIME:62703
;Filament used: 38.2141m
;Layer height: 0.2
;Generated with Cura_SteamEngine 4.0.0
M82 ;absolute extrusion mode
M98 P0:/sys/startprint.g

G92 E0
G10
;LAYER_COUNT:600
;LAYER:0
M107
G0 F3600 X30.353 Y26.025 Z0.28
;TYPE:SKIRT
G11
G1 F1800 X30.683 Y25.645 E0.00773
G1 X31.069 Y25.322 E0.01546
G1 X31.501 Y25.063 E0.0232
G1 X31.969 Y24.876 E0.03094
G1 X32.46 Y24.766 E0.03867
G1 X32.909 Y24.734 E0.04559
G1 X152.091 Y24.735 E1.87646
G1 X152.593 Y24.775 E1.88419
G1 X153.082 Y24.894 E1.89192
G1 X153.547 Y25.088 E1.89966
G1 X153.975 Y25.354 E1.90741
G1 X154.355 Y25.684 E1.91514
G1 X154.679 Y26.07 E1.92288
G1 X154.937 Y26.502 E1.93061
G1 X155.124 Y26.97 E1.93835
G1 X155.234 Y27.461 E1.94608
G1 X155.266 Y27.91 E1.95299
G1 X155.266 Y147.091 E3.78385
G1 X155.226 Y147.593 E3.79158
G1 X155.107 Y148.082 E3.79932
G1 X154.913 Y148.547 E3.80706
G1 X154.647 Y148.975 E3.8148
G1 X154.317 Y149.355 E3.82253
G1 X153.931 Y149.678 E3.83026
G1 X153.499 Y149.937 E3.838
G1 X153.031 Y150.124 E3.84574
G1 X152.54 Y150.234 E3.85347
G1 X152.091 Y150.266 E3.86038
G1 X32.909 Y150.266 E5.69125
G1 X32.407 Y150.226 E5.69899
G1 X31.918 Y150.107 E5.70672
G1 X31.453 Y149.913 E5.71446
G1 X31.025 Y149.647 E5.7222
G1 X30.645 Y149.317 E5.72993
G1 X30.322 Y148.931 E5.73767
G1 X30.063 Y148.499 E5.7454
G1 X29.876 Y148.031 E5.75314
G1 X29.766 Y147.54 E5.76087
G1 X29.734 Y147.091 E5.76779
G1 X29.734 Y27.909 E7.59866
G1 X29.774 Y27.407 E7.60639
G1 X29.893 Y26.918 E7.61413
G1 X30.087 Y26.453 E7.62187
G1 X30.353 Y26.025 E7.62961
G10
;MESH:xyzCalibration_cube.stl
G0 F3600 X32.204 Y28.439
G0 X33.439 Y28.439
G0 X151.505 Y146.505
G0 X151.925 Y146.925
;TYPE:WALL-OUTER
G11
G1 F1800 X33.075 Y146.925 E9.45537
G1 X33.075 Y28.075 E11.28114
G1 X151.925 Y28.075 E13.10691
G1 X151.925 Y146.925 E14.93268
G0 F3600 X151.725 Y146.925
G0 X151.575 Y146.575
;TYPE:WALL-INNER
G1 F1800 X33.425 Y146.575 E16.74769
G1 X33.425 Y28.425 E18.56271
G1 X151.575 Y28.425 E20.37772
G1 X151.575 Y146.575 E22.19274
G0 F3600 X151.225 Y146.225
G1 F1800 X33.775 Y146.225 E23.997
G1 X33.775 Y28.775 E25.80126
G1 X151.225 Y28.775 E27.60552
G1 X151.225 Y146.225 E29.40979
G0 F3600 X150.885 Y145.885
;TYPE:SKIN
G1 F1800 X34.115 Y145.885 E31.2036
G1 X34.115 Y29.115 E32.99742
G1 X150.885 Y29.115 E34.79123
G1 X150.885 Y145.885 E36.58505
G0 F3600 X150.727 Y29.458
G1 F1800 X150.54 Y29.272 E36.5891
G0 F3600 X150.045 Y29.272
G1 F1800 X150.727 Y29.953 E36.6039
G0 F3600 X150.727 Y30.448
G1 F1800 X149.55 Y29.272 E36.62946
G0 F3600 X149.055 Y29.272
G1 F1800 X150.727 Y30.943 E36.66578
G0 F3600 X150.727 Y31.438
G1 F1800 X148.561 Y29.272 E36.71283
G0 F3600 X148.066 Y29.272
G1 F1800 X150.727 Y31.933 E36.77064
G0 F3600 X150.727 Y32.428
G1 F1800 X147.571 Y29.272 E36.83921
G0 F3600 X147.076 Y29.272
G1 F1800 X150.727 Y32.923 E36.91853
G0 F3600 X150.727 Y33.418
G1 F1800 X146.581 Y29.272 E37.0086
G0 F3600 X146.086 Y29.272
G1 F1800 X150.727 Y33.913 E37.10943
G0 F3600 X150.727 Y34.408
G1 F1800 X145.591 Y29.272 E37.22101
G0 F3600 X145.096 Y29.272
G1 F1800 X150.727 Y34.903 E37.34334
G0 F3600 X150.727 Y35.398
G1 F1800 X144.601 Y29.272 E37.47643
G0 F3600 X144.106 Y29.272
G1 F1800 X150.727 Y35.893 E37.62027
G0 F3600 X150.727 Y36.388
G1 F1800 X143.611 Y29.272 E37.77487
G0 F3600 X143.116 Y29.272
G1 F1800 X150.727 Y36.883 E37.94021
G0 F3600 X150.727 Y37.378
G1 F1800 X142.621 Y29.272 E38.11632
G0 F3600 X142.126 Y29.272
G1 F1800 X150.727 Y37.873 E38.30318
G0 F3600 X150.727 Y38.368
G1 F1800 X141.631 Y29.272 E38.50079
G0 F3600 X141.136 Y29.272
G1 F1800 X150.727 Y38.863 E38.70915
G0 F3600 X150.727 Y39.358
G1 F1800 X140.641 Y29.272 E38.92827
G0 F3600 X140.146 Y29.272
G1 F1800 X150.727 Y39.853 E39.15814
G0 F3600 X150.727 Y40.348
G1 F1800 X139.651 Y29.272 E39.39877
G0 F3600 X139.156 Y29.272
G1 F1800 X150.727 Y40.843 E39.65015
G0 F3600 X150.727 Y41.338
G1 F1800 X138.661 Y29.272 E39.91229
G0 F3600 X138.166 Y29.272
G1 F1800 X150.727 Y41.833 E40.18518
G0 F3600 X150.727 Y42.328
G1 F1800 X137.671 Y29.272 E40.46882
G0 F3600 X137.176 Y29.272
G1 F1800 X150.727 Y42.823 E40.76322
G0 F3600 X150.727 Y43.318
G1 F1800 X136.681 Y29.272 E41.06837
G0 F3600 X136.186 Y29.272
G1 F1800 X150.727 Y43.813 E41.38427
G0 F3600 X150.727 Y44.308
G1 F1800 X135.691 Y29.272 E41.71093
G0 F3600 X135.196 Y29.272
G1 F1800 X150.727 Y44.802 E42.04833
G0 F3600 X150.727 Y45.297
G1 F1800 X134.701 Y29.272 E42.39649
G0 F3600 X134.206 Y29.272
G1 F1800 X150.727 Y45.792 E42.7554
G0 F3600 X150.727 Y46.287
G1 F1800 X133.711 Y29.272 E43.12506
G0 F3600 X133.216 Y29.272
G1 F1800 X150.727 Y46.782 E43.50548
G0 F3600 X150.727 Y47.277
G1 F1800 X132.721 Y29.272 E43.89665
G0 F3600 X132.226 Y29.272
G1 F1800 X150.727 Y47.772 E44.29857
G0 F3600 X150.727 Y48.267
G1 F1800 X131.731 Y29.272 E44.71125
G0 F3600 X131.236 Y29.272
G1 F1800 X150.727 Y48.762 E45.13468
G0 F3600 X150.727 Y49.257
G1 F1800 X130.741 Y29.272 E45.56887
G0 F3600 X130.246 Y29.272
G1 F1800 X150.727 Y49.752 E46.01381
G0 F3600 X150.727 Y50.247
G1 F1800 X129.751 Y29.272 E46.4695
G0 F3600 X129.256 Y29.272
G1 F1800 X150.727 Y50.742 E46.93595
G0 F3600 X150.727 Y51.237
G1 F1800 X128.762 Y29.272 E47.41314
G0 F3600 X128.267 Y29.272
G1 F1800 X150.727 Y51.732 E47.90109
G0 F3600 X150.727 Y52.227
G1 F1800 X127.772 Y29.272 E48.39979
G0 F3600 X127.277 Y29.272
G1 F1800 X150.727 Y52.722 E48.90924
G0 F3600 X150.727 Y53.217
G1 F1800 X126.782 Y29.272 E49.42945
G0 F3600 X126.287 Y29.272
G1 F1800 X150.727 Y53.712 E49.96041
G0 F3600 X150.727 Y54.207
G1 F1800 X125.792 Y29.272 E50.50213
G0 F3600 X125.297 Y29.272
G1 F1800 X150.727 Y54.702 E51.05459
G0 F3600 X150.727 Y55.197
G1 F1800 X124.802 Y29.272 E51.61782
G0 F3600 X124.307 Y29.272
G1 F1800 X150.727 Y55.692 E52.19179
G0 F3600 X150.727 Y56.187
G1 F1800 X123.812 Y29.272 E52.77652
G0 F3600 X123.317 Y29.272
G1 F1800 X150.727 Y56.682 E53.37201
G0 F3600 X150.727 Y57.177
G1 F1800 X122.822 Y29.272 E53.97825
G0 F3600 X122.327 Y29.272
G1 F1800 X150.727 Y57.672 E54.59524
G0 F3600 X150.727 Y58.167
G1 F1800 X121.832 Y29.272 E55.22299
G0 F3600 X121.337 Y29.272
G1 F1800 X150.727 Y58.662 E55.86149
G0 F3600 X150.727 Y59.157
G1 F1800 X120.842 Y29.272 E56.51074
G0 F3600 X120.347 Y29.272
G1 F1800 X150.727 Y59.652 E57.17075
G0 F3600 X150.727 Y60.147
G1 F1800 X119.852 Y29.272 E57.84151
G0 F3600 X119.357 Y29.272
G1 F1800 X150.727 Y60.642 E58.52303
G0 F3600 X150.727 Y61.137
G1 F1800 X118.862 Y29.272 E59.2153
G0 F3600 X118.367 Y29.272
G1 F1800 X150.727 Y61.632 E59.91832
G0 F3600 X150.727 Y62.127
G1 F1800 X117.872 Y29.272 E60.6321
G0 F3600 X117.377 Y29.272
G1 F1800 X150.727 Y62.622 E61.35663
G0 F3600 X150.727 Y63.117
G1 F1800 X116.882 Y29.272 E62.09192
G0 F3600 X116.387 Y29.272
G1 F1800 X150.727 Y63.612 E62.83795
G0 F3600 X150.727 Y64.107
G1 F1800 X115.892 Y29.272 E63.59475
G0 F3600 X115.397 Y29.272
G1 F1800 X150.727 Y64.601 E64.36228
G0 F3600 X150.727 Y65.096
G1 F1800 X114.902 Y29.272 E65.14057
G0 F3600 X114.407 Y29.272
G1 F1800 X150.727 Y65.591 E65.92962
G0 F3600 X150.727 Y66.086
G1 F1800 X113.912 Y29.272 E66.72942
G0 F3600 X113.417 Y29.272
G1 F1800 X150.727 Y66.581 E67.53997
G0 F3600 X150.727 Y67.076
G1 F1800 X112.922 Y29.272 E68.36127
G0 F3600 X112.427 Y29.272
G1 F1800 X150.727 Y67.571 E69.19333
G0 F3600 X150.727 Y68.066
G1 F1800 X111.932 Y29.272 E70.03615
G0 F3600 X111.437 Y29.272
G1 F1800 X150.727 Y68.561 E70.88972
G0 F3600 X150.727 Y69.056
G1 F1800 X110.942 Y29.272 E71.75404
G0 F3600 X110.447 Y29.272
G1 F1800 X150.727 Y69.551 E72.62911
G0 F3600 X150.727 Y70.046
G1 F1800 X109.952 Y29.272 E73.51494
G0 F3600 X109.458 Y29.272
G1 F1800 X150.727 Y70.541 E74.41152
G0 F3600 X150.727 Y71.036
G1 F1800 X108.963 Y29.272 E75.31884
G0 F3600 X108.468 Y29.272
G1 F1800 X150.727 Y71.531 E76.23692
G0 F3600 X150.727 Y72.026
G1 F1800 X107.973 Y29.272 E77.16576
G0 F3600 X107.478 Y29.272
G1 F1800 X150.727 Y72.521 E78.10534
G0 F3600 X150.727 Y73.016
G1 F1800 X106.983 Y29.272 E79.05569
G0 F3600 X106.488 Y29.272
G1 F1800 X150.727 Y73.511 E80.01678
G0 F3600 X150.727 Y74.006
G1 F1800 X105.993 Y29.272 E80.98863
G0 F3600 X105.498 Y29.272
G1 F1800 X150.727 Y74.501 E81.97124
G0 F3600 X150.727 Y74.996
G1 F1800 X105.003 Y29.272 E82.96459
G0 F3600 X104.508 Y29.272
G1 F1800 X150.727 Y75.491 E83.96871
G0 F3600 X150.727 Y75.986
G1 F1800 X104.013 Y29.272 E84.98357
G0 F3600 X103.518 Y29.272
G1 F1800 X150.727 Y76.481 E86.00919
G0 F3600 X150.727 Y76.976
G1 F1800 X103.023 Y29.272 E87.04556
G0 F3600 X102.528 Y29.272
G1 F1800 X150.727 Y77.471 E88.09269
G0 F3600 X150.727 Y77.966
G1 F1800 X102.033 Y29.272 E89.15057
G0 F3600 X101.538 Y29.272
G1 F1800 X150.727 Y78.461 E90.21921
G0 F3600 X150.727 Y78.956
G1 F1800 X101.043 Y29.272 E91.2986
G0 F3600 X100.548 Y29.272
G1 F1800 X150.727 Y79.451 E92.38874
G0 F3600 X150.727 Y79.946
G1 F1800 X100.053 Y29.272 E93.48964
G0 F3600 X99.558 Y29.272
G1 F1800 X150.727 Y80.441 E94.60129
G0 F3600 X150.727 Y80.936
G1 F1800 X99.063 Y29.272 E95.72369
G0 F3600 X98.568 Y29.272
G1 F1800 X150.727 Y81.431 E96.85685
G0 F3600 X150.727 Y81.926
G1 F1800 X98.073 Y29.272 E98.00076
G0 F3600 X97.578 Y29.272
G1 F1800 X150.727 Y82.421 E99.15543
G0 F3600 X150.727 Y82.916
G1 F1800 X97.083 Y29.272 E100.32085
G0 F3600 X96.588 Y29.272
G1 F1800 X150.727 Y83.411 E101.49703
G0 F3600 X150.727 Y83.905
G1 F1800 X96.093 Y29.272 E102.68394
G0 F3600 X95.598 Y29.272
G1 F1800 X150.727 Y84.4 E103.88161
G0 F3600 X150.727 Y84.895
G1 F1800 X95.103 Y29.272 E105.09004
G0 F3600 X94.608 Y29.272
G1 F1800 X150.727 Y85.39 E106.30922
G0 F3600 X150.727 Y85.885
G1 F1800 X94.113 Y29.272 E107.53915
G0 F3600 X93.618 Y29.272
G1 F1800 X150.727 Y86.38 E108.77984
G0 F3600 X150.727 Y86.875
G1 F1800 X93.123 Y29.272 E110.03128
G0 F3600 X92.628 Y29.272
G1 F1800 X150.727 Y87.37 E111.29347
G0 F3600 X150.727 Y87.865
G1 F1800 X92.133 Y29.272 E112.56642
G0 F3600 X91.638 Y29.272
G1 F1800 X150.727 Y88.36 E113.85013
G0 F3600 X150.727 Y88.855
G1 F1800 X91.143 Y29.272 E115.14458
G0 F3600 X90.648 Y29.272
G1 F1800 X150.727 Y89.35 E116.44979
G0 F3600 X150.727 Y89.845
G1 F1800 X90.153 Y29.272 E117.76576
G0 F3600 X89.659 Y29.272
G1 F1800 X150.727 Y90.34 E119.09246
G0 F3600 X150.727 Y90.835
G1 F1800 X89.164 Y29.272 E120.42993
G0 F3600 X88.669 Y29.272
G1 F1800 X150.727 Y91.33 E121.77814
G0 F3600 X150.727 Y91.825
G1 F1800 X88.174 Y29.272 E123.13711
G0 F3600 X87.679 Y29.272
G1 F1800 X150.727 Y92.32 E124.50683
G0 F3600 X150.727 Y92.815
G1 F1800 X87.184 Y29.272 E125.88731
G0 F3600 X86.689 Y29.272
G1 F1800 X150.727 Y93.31 E127.27854
G0 F3600 X150.727 Y93.805
G1 F1800 X86.194 Y29.272 E128.68053
G0 F3600 X85.699 Y29.272
G1 F1800 X150.727 Y94.3 E130.09327
G0 F3600 X150.727 Y94.795
G1 F1800 X85.204 Y29.272 E131.51676
G0 F3600 X84.709 Y29.272
G1 F1800 X150.727 Y95.29 E132.951
G0 F3600 X150.727 Y95.785
G1 F1800 X84.214 Y29.272 E134.396
G0 F3600 X83.719 Y29.272
G1 F1800 X150.727 Y96.28 E135.85176
G0 F3600 X150.727 Y96.775
G1 F1800 X83.224 Y29.272 E137.31827
G0 F3600 X82.729 Y29.272
G1 F1800 X150.727 Y97.27 E138.79553
G0 F3600 X150.727 Y97.765
G1 F1800 X82.234 Y29.272 E140.28355
G0 F3600 X81.739 Y29.272
G1 F1800 X150.727 Y98.26 E141.78232
G0 F3600 X150.727 Y98.755
G1 F1800 X81.244 Y29.272 E143.29184
G0 F3600 X80.749 Y29.272
G1 F1800 X150.727 Y99.25 E144.81212
G0 F3600 X150.727 Y99.745
G1 F1800 X80.254 Y29.272 E146.34315
G0 F3600 X79.759 Y29.272
G1 F1800 X150.727 Y100.24 E147.88494
G0 F3600 X150.727 Y100.735
G1 F1800 X79.264 Y29.272 E149.43748
G0 F3600 X78.769 Y29.272
G1 F1800 X150.727 Y101.23 E151.00077
G0 F3600 X150.727 Y101.725
G1 F1800 X78.274 Y29.272 E152.57482
G0 F3600 X77.779 Y29.272
G1 F1800 X150.727 Y102.22 E154.15962
G0 F3600 X150.727 Y102.715
G1 F1800 X77.284 Y29.272 E155.75517
G0 F3600 X76.789 Y29.272
G1 F1800 X150.727 Y103.21 E157.36148
G0 F3600 X150.727 Y103.704
G1 F1800 X76.294 Y29.272 E158.97854
G0 F3600 X75.799 Y29.272
G1 F1800 X150.727 Y104.199 E160.60634
G0 F3600 X150.727 Y104.694
G1 F1800 X75.304 Y29.272 E162.2449
G0 F3600 X74.809 Y29.272
G1 F1800 X150.727 Y105.189 E163.89422
G0 F3600 X150.727 Y105.684
G1 F1800 X74.314 Y29.272 E165.55428
G0 F3600 X73.819 Y29.272
G1 F1800 X150.727 Y106.179 E167.22511
G0 F3600 X150.727 Y106.674
G1 F1800 X73.324 Y29.272 E168.90668
G0 F3600 X72.829 Y29.272
G1 F1800 X150.727 Y107.169 E170.59901
G0 F3600 X150.727 Y107.664
G1 F1800 X72.334 Y29.272 E172.3021
G0 F3600 X71.839 Y29.272
G1 F1800 X150.727 Y108.159 E174.01593
G0 F3600 X150.727 Y108.654
G1 F1800 X71.344 Y29.272 E175.74052
G0 F3600 X70.849 Y29.272
G1 F1800 X150.727 Y109.149 E177.47587
G0 F3600 X150.727 Y109.644
G1 F1800 X70.355 Y29.272 E179.22196
G0 F3600 X69.86 Y29.272
G1 F1800 X150.727 Y110.139 E180.9788
G0 F3600 X150.727 Y110.634
G1 F1800 X69.365 Y29.272 E182.7464
G0 F3600 X68.87 Y29.272
G1 F1800 X150.727 Y111.129 E184.52475
G0 F3600 X150.727 Y111.624
G1 F1800 X68.375 Y29.272 E186.31385
G0 F3600 X67.88 Y29.272
G1 F1800 X150.727 Y112.119 E188.11371
G0 F3600 X150.727 Y112.614
G1 F1800 X67.385 Y29.272 E189.92432
G0 F3600 X66.89 Y29.272
G1 F1800 X150.727 Y113.109 E191.74569
G0 F3600 X150.727 Y113.604
G1 F1800 X66.395 Y29.272 E193.57781
G0 F3600 X65.9 Y29.272
G1 F1800 X150.727 Y114.099 E195.42068
G0 F3600 X150.727 Y114.594
G1 F1800 X65.405 Y29.272 E197.27431
G0 F3600 X64.91 Y29.272
G1 F1800 X150.727 Y115.089 E199.13869
G0 F3600 X150.727 Y115.584
G1 F1800 X64.415 Y29.272 E201.01383
G0 F3600 X63.92 Y29.272
G1 F1800 X150.727 Y116.079 E202.89971
G0 F3600 X150.727 Y116.574
G1 F1800 X63.425 Y29.272 E204.79636
G0 F3600 X62.93 Y29.272
G1 F1800 X150.727 Y117.069 E206.70376
G0 F3600 X150.727 Y117.564
G1 F1800 X62.435 Y29.272 E208.62191
G0 F3600 X61.94 Y29.272
G1 F1800 X150.727 Y118.059 E210.55081
G0 F3600 X150.727 Y118.554
G1 F1800 X61.445 Y29.272 E212.49047
G0 F3600 X60.95 Y29.272
G1 F1800 X150.727 Y119.049 E214.44088
G0 F3600 X150.727 Y119.544
G1 F1800 X60.455 Y29.272 E216.40205
G0 F3600 X59.96 Y29.272
G1 F1800 X150.727 Y120.039 E218.37397
G0 F3600 X150.727 Y120.534
G1 F1800 X59.465 Y29.272 E220.35665
G0 F3600 X58.97 Y29.272
G1 F1800 X150.727 Y121.029 E222.35007
G0 F3600 X150.727 Y121.524
G1 F1800 X58.475 Y29.272 E224.35426
G0 F3600 X57.98 Y29.272
G1 F1800 X150.727 Y122.019 E226.36919
G0 F3600 X150.727 Y122.514
G1 F1800 X57.485 Y29.272 E228.39488
G0 F3600 X56.99 Y29.272
G1 F1800 X150.727 Y123.009 E230.43133
G0 F3600 X150.727 Y123.503
G1 F1800 X56.495 Y29.272 E232.47851
G0 F3600 X56 Y29.272
G1 F1800 X150.727 Y123.998 E234.53646
G0 F3600 X150.727 Y124.493
G1 F1800 X55.505 Y29.272 E236.60515
G0 F3600 X55.01 Y29.272
G1 F1800 X150.727 Y124.988 E238.6846
G0 F3600 X150.727 Y125.483
G1 F1800 X54.515 Y29.272 E240.7748
G0 F3600 X54.02 Y29.272
G1 F1800 X150.727 Y125.978 E242.87576
G0 F3600 X150.727 Y126.473
G1 F1800 X53.525 Y29.272 E244.98747
G0 F3600 X53.03 Y29.272
G1 F1800 X150.727 Y126.968 E247.10994
G0 F3600 X150.727 Y127.463
G1 F1800 X52.535 Y29.272 E249.24315
G0 F3600 X52.04 Y29.272
G1 F1800 X150.727 Y127.958 E251.38713
G0 F3600 X150.727 Y128.453
G1 F1800 X51.545 Y29.272 E253.54185
G0 F3600 X51.05 Y29.272
G1 F1800 X150.727 Y128.948 E255.70733
G0 F3600 X150.727 Y129.443
G1 F1800 X50.556 Y29.272 E257.88356
G0 F3600 X50.061 Y29.272
G1 F1800 X150.727 Y129.938 E260.07053
G0 F3600 X150.727 Y130.433
G1 F1800 X49.566 Y29.272 E262.26827
G0 F3600 X49.071 Y29.272
G1 F1800 X150.727 Y130.928 E264.47675
G0 F3600 X150.727 Y131.423
G1 F1800 X48.576 Y29.272 E266.69599
G0 F3600 X48.081 Y29.272
G1 F1800 X150.727 Y131.918 E268.92598
G0 F3600 X150.727 Y132.413
G1 F1800 X47.586 Y29.272 E271.16673
G0 F3600 X47.091 Y29.272
G1 F1800 X150.727 Y132.908 E273.41823
G0 F3600 X150.727 Y133.403
G1 F1800 X46.596 Y29.272 E275.68049
G0 F3600 X46.101 Y29.272
G1 F1800 X150.727 Y133.898 E277.95349
G0 F3600 X150.727 Y134.393
G1 F1800 X45.606 Y29.272 E280.23726
G0 F3600 X45.111 Y29.272
G1 F1800 X150.727 Y134.888 E282.53177
G0 F3600 X150.727 Y135.383
G1 F1800 X44.616 Y29.272 E284.83704
G0 F3600 X44.121 Y29.272
G1 F1800 X150.727 Y135.878 E287.15307
G0 F3600 X150.727 Y136.373
G1 F1800 X43.626 Y29.272 E289.47985
G0 F3600 X43.131 Y29.272
G1 F1800 X150.727 Y136.868 E291.81738
G0 F3600 X150.727 Y137.363
G1 F1800 X42.636 Y29.272 E294.16566
G0 F3600 X42.141 Y29.272
G1 F1800 X150.727 Y137.858 E296.5247
G0 F3600 X150.727 Y138.353
