;FLAVOR:Marlin
;TIME:10741
;Filament used: 5.41957m
;Layer height: 0.2
;Generated with Cura_SteamEngine 4.0.0
M82 ;absolute extrusion mode
M98 P0:/sys/startprint.g

G92 E0
;LAYER_COUNT:600
;LAYER:0
M107
G0 F1800 X30.353 Y26.025 Z0.28
;TYPE:SKIRT
G1 X30.683 Y25.645 E0.00773
G1 X31.069 Y25.322 E0.01546
G1 X31.501 Y25.063 E0.0232
G1 X31.969 Y24.876 E0.03094
G1 X32.46 Y24.766 E0.03867
G1 X32.909 Y24.734 E0.04559
G1 X152.091 Y24.735 E1.87646
G1 X152.593 Y24.775 E1.88419
G1 X153.082 Y24.894 E1.89192
G1 X153.547 Y25.088 E1.89966
G1 X153.975 Y25.354 E1.90741
G1 X154.355 Y25.684 E1.91514
G1 X154.679 Y26.07 E1.92288
G1 X154.937 Y26.502 E1.93061
G1 X155.124 Y26.97 E1.93835
G1 X155.234 Y27.461 E1.94608
G1 X155.266 Y27.91 E1.95299
G1 X155.266 Y147.091 E3.78385
G1 X155.226 Y147.593 E3.79158
G1 X155.107 Y148.082 E3.79932
G1 X154.913 Y148.547 E3.80706
G1 X154.647 Y148.975 E3.8148
G1 X154.317 Y149.355 E3.82253
G1 X153.931 Y149.678 E3.83026
G1 X153.499 Y149.937 E3.838
G1 X153.031 Y150.124 E3.84574
G1 X152.54 Y150.234 E3.85347
G1 X152.091 Y150.266 E3.86038
G1 X32.909 Y150.266 E5.69125
G1 X32.407 Y150.226 E5.69899
G1 X31.918 Y150.107 E5.70672
G1 X31.453 Y149.913 E5.71446
G1 X31.025 Y149.647 E5.7222
G1 X30.645 Y149.317 E5.72993
G1 X30.322 Y148.931 E5.73767
G1 X30.063 Y148.499 E5.7454
G1 X29.876 Y148.031 E5.75314
G1 X29.766 Y147.54 E5.76087
G1 X29.734 Y147.091 E5.76779
G1 X29.734 Y27.909 E7.59866
G1 X29.774 Y27.407 E7.60639
G1 X29.893 Y26.918 E7.61413
G1 X30.087 Y26.453 E7.62187
G1 X30.353 Y26.025 E7.62961
;MESH:xyzCalibration_cube.stl
G0 X32.204 Y28.089
G0 X33.089 Y28.089
G0 X151.825 Y146.855
G0 X151.925 Y146.925
;TYPE:WALL-OUTER
G1 X33.075 Y146.925 E9.45537
G1 X33.075 Y28.075 E11.28114
G1 X151.925 Y28.075 E13.10691
G1 X151.925 Y146.925 E14.93268
G0 X151.725 Y146.925
G0 X151.585 Y146.585
;TYPE:SKIN
G1 X33.415 Y146.585 E16.748
G1 X33.415 Y28.415 E18.56332
G1 X151.585 Y28.415 E20.37865
G1 X151.585 Y146.585 E22.19397
G0 X151.427 Y28.673
G1 X151.325 Y28.572 E22.19617
G0 X150.83 Y28.572
G1 X151.427 Y29.168 E22.20913
G0 X151.427 Y29.663
G1 X150.335 Y28.572 E22.23285
G0 X149.84 Y28.572
G1 X151.427 Y30.158 E22.26731
G0 X151.427 Y30.653
G1 X149.345 Y28.572 E22.31253
G0 X148.85 Y28.572
G1 X151.427 Y31.148 E22.36851
G0 X151.427 Y31.643
G1 X148.355 Y28.572 E22.43524
G0 X147.86 Y28.572
G1 X151.427 Y32.138 E22.51272
G0 X151.427 Y32.633
G1 X147.366 Y28.572 E22.60094
G0 X146.871 Y28.572
G1 X151.427 Y33.128 E22.69992
G0 X151.427 Y33.623
G1 X146.376 Y28.572 E22.80966
G0 X145.881 Y28.572
G1 X151.427 Y34.118 E22.93014
G0 X151.427 Y34.613
G1 X145.386 Y28.572 E23.06139
G0 X144.891 Y28.572
G1 X151.427 Y35.108 E23.20338
G0 X151.427 Y35.603
G1 X144.396 Y28.572 E23.35613
G0 X143.901 Y28.572
G1 X151.427 Y36.098 E23.51963
G0 X151.427 Y36.593
G1 X143.406 Y28.572 E23.69389
G0 X142.911 Y28.572
G1 X151.427 Y37.088 E23.8789
G0 X151.427 Y37.583
G1 X142.416 Y28.572 E24.07467
G0 X141.921 Y28.572
G1 X151.427 Y38.078 E24.28118
G0 X151.427 Y38.573
G1 X141.426 Y28.572 E24.49846
G0 X140.931 Y28.572
G1 X151.427 Y39.068 E24.72648
G0 X151.427 Y39.563
G1 X140.436 Y28.572 E24.96526
G0 X139.941 Y28.572
G1 X151.427 Y40.058 E25.2148
G0 X151.427 Y40.553
G1 X139.446 Y28.572 E25.47509
G0 X138.951 Y28.572
G1 X151.427 Y41.048 E25.74613
G0 X151.427 Y41.543
G1 X138.456 Y28.572 E26.02792
G0 X137.961 Y28.572
G1 X151.427 Y42.038 E26.32047
G0 X151.427 Y42.533
G1 X137.466 Y28.572 E26.62378
G0 X136.971 Y28.572
G1 X151.427 Y43.028 E26.93784
G0 X151.427 Y43.523
G1 X136.476 Y28.572 E27.26265
G0 X135.981 Y28.572
G1 X151.427 Y44.018 E27.59821
G0 X151.427 Y44.513
G1 X135.486 Y28.572 E27.94453
G0 X134.991 Y28.572
G1 X151.427 Y45.008 E28.30161
G0 X151.427 Y45.503
G1 X134.496 Y28.572 E28.66943
G0 X134.001 Y28.572
G1 X151.427 Y45.998 E29.04802
G0 X151.427 Y46.492
G1 X133.506 Y28.572 E29.43734
G0 X133.011 Y28.572
G1 X151.427 Y46.987 E29.83742
G0 X151.427 Y47.482
G1 X132.516 Y28.572 E30.24825
G0 X132.021 Y28.572
G1 X151.427 Y47.977 E30.66984
G0 X151.427 Y48.472
G1 X131.526 Y28.572 E31.10218
G0 X131.031 Y28.572
G1 X151.427 Y48.967 E31.54527
G0 X151.427 Y49.462
G1 X130.536 Y28.572 E31.99912
G0 X130.041 Y28.572
G1 X151.427 Y49.957 E32.46372
G0 X151.427 Y50.452
G1 X129.546 Y28.572 E32.93908
G0 X129.051 Y28.572
G1 X151.427 Y50.947 E33.42519
G0 X151.427 Y51.442
G1 X128.556 Y28.572 E33.92205
G0 X128.061 Y28.572
G1 X151.427 Y51.937 E34.42967
G0 X151.427 Y52.432
G1 X127.567 Y28.572 E34.94803
G0 X127.072 Y28.572
G1 X151.427 Y52.927 E35.47714
G0 X151.427 Y53.422
G1 X126.577 Y28.572 E36.01701
G0 X126.082 Y28.572
G1 X151.427 Y53.917 E36.56763
G0 X151.427 Y54.412
G1 X125.587 Y28.572 E37.12901
G0 X125.092 Y28.572
G1 X151.427 Y54.907 E37.70114
G0 X151.427 Y55.402
G1 X124.597 Y28.572 E38.28402
G0 X124.102 Y28.572
G1 X151.427 Y55.897 E38.87766
G0 X151.427 Y56.392
G1 X123.607 Y28.572 E39.48205
G0 X123.112 Y28.572
G1 X151.427 Y56.887 E40.0972
G0 X151.427 Y57.382
G1 X122.617 Y28.572 E40.7231
G0 X122.122 Y28.572
G1 X151.427 Y57.877 E41.35975
G0 X151.427 Y58.372
G1 X121.627 Y28.572 E42.00716
G0 X121.132 Y28.572
G1 X151.427 Y58.867 E42.66532
G0 X151.427 Y59.362
G1 X120.637 Y28.572 E43.33424
G0 X120.142 Y28.572
G1 X151.427 Y59.857 E44.0139
G0 X151.427 Y60.352
G1 X119.647 Y28.572 E44.70433
G0 X119.152 Y28.572
G1 X151.427 Y60.847 E45.4055
G0 X151.427 Y61.342
G1 X118.657 Y28.572 E46.11744
G0 X118.162 Y28.572
G1 X151.427 Y61.837 E46.84012
G0 X151.427 Y62.332
G1 X117.667 Y28.572 E47.57356
G0 X117.172 Y28.572
G1 X151.427 Y62.827 E48.31775
G0 X151.427 Y63.322
G1 X116.677 Y28.572 E49.0727
G0 X116.182 Y28.572
G1 X151.427 Y63.817 E49.8384
G0 X151.427 Y64.312
G1 X115.687 Y28.572 E50.61485
G0 X115.192 Y28.572
G1 X151.427 Y64.807 E51.40206
G0 X151.427 Y65.302
G1 X114.697 Y28.572 E52.20003
G0 X114.202 Y28.572
G1 X151.427 Y65.796 E53.00873
G0 X151.427 Y66.291
G1 X113.707 Y28.572 E53.82819
G0 X113.212 Y28.572
G1 X151.427 Y66.786 E54.6584
G0 X151.427 Y67.281
G1 X112.717 Y28.572 E55.49937
G0 X112.222 Y28.572
G1 X151.427 Y67.776 E56.35109
G0 X151.427 Y68.271
G1 X111.727 Y28.572 E57.21357
G0 X111.232 Y28.572
G1 X151.427 Y68.766 E58.0868
G0 X151.427 Y69.261
G1 X110.737 Y28.572 E58.97078
G0 X110.242 Y28.572
G1 X151.427 Y69.756 E59.86551
G0 X151.427 Y70.251
G1 X109.747 Y28.572 E60.77101
G0 X109.252 Y28.572
G1 X151.427 Y70.746 E61.68725
G0 X151.427 Y71.241
G1 X108.757 Y28.572 E62.61425
G0 X108.262 Y28.572
G1 X151.427 Y71.736 E63.552
G0 X151.427 Y72.231
G1 X107.768 Y28.572 E64.5005
G0 X107.273 Y28.572
G1 X151.427 Y72.726 E65.45975
G0 X151.427 Y73.221
G1 X106.778 Y28.572 E66.42975
G0 X106.283 Y28.572
G1 X151.427 Y73.716 E67.41051
G0 X151.427 Y74.211
G1 X105.788 Y28.572 E68.40202
G0 X105.293 Y28.572
G1 X151.427 Y74.706 E69.40428
G0 X151.427 Y75.201
G1 X104.798 Y28.572 E70.4173
G0 X104.303 Y28.572
G1 X151.427 Y75.696 E71.44107
G0 X151.427 Y76.191
G1 X103.808 Y28.572 E72.4756
G0 X103.313 Y28.572
G1 X151.427 Y76.686 E73.52088
G0 X151.427 Y77.181
G1 X102.818 Y28.572 E74.57692
G0 X102.323 Y28.572
G1 X151.427 Y77.676 E75.6437
G0 X151.427 Y78.171
G1 X101.828 Y28.572 E76.72125
G0 X101.333 Y28.572
G1 X151.427 Y78.666 E77.80954
G0 X151.427 Y79.161
G1 X100.838 Y28.572 E78.90859
G0 X100.343 Y28.572
G1 X151.427 Y79.656 E80.0184
G0 X151.427 Y80.151
G1 X99.848 Y28.572 E81.13896
G0 X99.353 Y28.572
G1 X151.427 Y80.646 E82.27027
G0 X151.427 Y81.141
G1 X98.858 Y28.572 E83.41233
G0 X98.363 Y28.572
G1 X151.427 Y81.636 E84.56515
G0 X151.427 Y82.131
G1 X97.868 Y28.572 E85.72873
G0 X97.373 Y28.572
G1 X151.427 Y82.626 E86.90306
G0 X151.427 Y83.121
G1 X96.878 Y28.572 E88.08814
G0 X96.383 Y28.572
G1 X151.427 Y83.616 E89.28397
G0 X151.427 Y84.111
G1 X95.888 Y28.572 E90.49056
G0 X95.393 Y28.572
G1 X151.427 Y84.606 E91.70791
G0 X151.427 Y85.101
G1 X94.898 Y28.572 E92.936
G0 X94.403 Y28.572
G1 X151.427 Y85.595 E94.17484
G0 X151.427 Y86.09
G1 X93.908 Y28.572 E95.42444
G0 X93.413 Y28.572
G1 X151.427 Y86.585 E96.68479
G0 X151.427 Y87.08
G1 X92.918 Y28.572 E97.95589
G0 X92.423 Y28.572
G1 X151.427 Y87.575 E99.23774
G0 X151.427 Y88.07
G1 X91.928 Y28.572 E100.53035
G0 X91.433 Y28.572
G1 X151.427 Y88.565 E101.83372
G0 X151.427 Y89.06
G1 X90.938 Y28.572 E103.14784
G0 X90.443 Y28.572
G1 X151.427 Y89.555 E104.47271
G0 X151.427 Y90.05
G1 X89.948 Y28.572 E105.80833
G0 X89.453 Y28.572
G1 X151.427 Y90.545 E107.15471
G0 X151.427 Y91.04
G1 X88.958 Y28.572 E108.51185
G0 X88.464 Y28.572
G1 X151.427 Y91.535 E109.87972
G0 X151.427 Y92.03
G1 X87.969 Y28.572 E111.25835
G0 X87.474 Y28.572
G1 X151.427 Y92.525 E112.64774
G0 X151.427 Y93.02
G1 X86.979 Y28.572 E114.04788
G0 X86.484 Y28.572
G1 X151.427 Y93.515 E115.45877
G0 X151.427 Y94.01
G1 X85.989 Y28.572 E116.88041
G0 X85.494 Y28.572
G1 X151.427 Y94.505 E118.31281
G0 X151.427 Y95
G1 X84.999 Y28.572 E119.75597
G0 X84.504 Y28.572
G1 X151.427 Y95.495 E121.20988
G0 X151.427 Y95.99
G1 X84.009 Y28.572 E122.67454
G0 X83.514 Y28.572
G1 X151.427 Y96.485 E124.14995
G0 X151.427 Y96.98
G1 X83.019 Y28.572 E125.63612
G0 X82.524 Y28.572
G1 X151.427 Y97.475 E127.13305
G0 X151.427 Y97.97
G1 X82.029 Y28.572 E128.64072
G0 X81.534 Y28.572
G1 X151.427 Y98.465 E130.15915
G0 X151.427 Y98.96
G1 X81.039 Y28.572 E131.68834
G0 X80.544 Y28.572
G1 X151.427 Y99.455 E133.22828
G0 X151.427 Y99.95
G1 X80.049 Y28.572 E134.77897
G0 X79.554 Y28.572
G1 X151.427 Y100.445 E136.34042
G0 X151.427 Y100.94
G1 X79.059 Y28.572 E137.91262
G0 X78.564 Y28.572
G1 X151.427 Y101.435 E139.49557
G0 X151.427 Y101.93
G1 X78.069 Y28.572 E141.08928
G0 X77.574 Y28.572
G1 X151.427 Y102.425 E142.69375
G0 X151.427 Y102.92
G1 X77.079 Y28.572 E144.30896
G0 X76.584 Y28.572
G1 X151.427 Y103.415 E145.93493
G0 X151.427 Y103.91
G1 X76.089 Y28.572 E147.57166
G0 X75.594 Y28.572
G1 X151.427 Y104.405 E149.21914
G0 X151.427 Y104.899
G1 X75.099 Y28.572 E150.87736
G0 X74.604 Y28.572
G1 X151.427 Y105.394 E152.54633
G0 X151.427 Y105.889
G1 X74.109 Y28.572 E154.22606
G0 X73.614 Y28.572
G1 X151.427 Y106.384 E155.91654
G0 X151.427 Y106.879
G1 X73.119 Y28.572 E157.61778
G0 X72.624 Y28.572
G1 X151.427 Y107.374 E159.32977
G0 X151.427 Y107.869
G1 X72.129 Y28.572 E161.05252
G0 X71.634 Y28.572
G1 X151.427 Y108.364 E162.78602
G0 X151.427 Y108.859
G1 X71.139 Y28.572 E164.53027
G0 X70.644 Y28.572
G1 X151.427 Y109.354 E166.28528
G0 X151.427 Y109.849
G1 X70.149 Y28.572 E168.05104
G0 X69.654 Y28.572
G1 X151.427 Y110.344 E169.82755
G0 X151.427 Y110.839
G1 X69.159 Y28.572 E171.61482
G0 X68.665 Y28.572
G1 X151.427 Y111.334 E173.41283
G0 X151.427 Y111.829
G1 X68.17 Y28.572 E175.2216
G0 X67.675 Y28.572
G1 X151.427 Y112.324 E177.04112
G0 X151.427 Y112.819
G1 X67.18 Y28.572 E178.87139
G0 X66.685 Y28.572
G1 X151.427 Y113.314 E180.71242
G0 X151.427 Y113.809
G1 X66.19 Y28.572 E182.5642
G0 X65.695 Y28.572
G1 X151.427 Y114.304 E184.42673
G0 X151.427 Y114.799
G1 X65.2 Y28.572 E186.30002
G0 X64.705 Y28.572
G1 X151.427 Y115.294 E188.18406
G0 X151.427 Y115.789
G1 X64.21 Y28.572 E190.07886
G0 X63.715 Y28.572
G1 X151.427 Y116.284 E191.98441
G0 X151.427 Y116.779
G1 X63.22 Y28.572 E193.90071
G0 X62.725 Y28.572
G1 X151.427 Y117.274 E195.82777
G0 X151.427 Y117.769
G1 X62.23 Y28.572 E197.76559
G0 X61.735 Y28.572
G1 X151.427 Y118.264 E199.71415
G0 X151.427 Y118.759
G1 X61.24 Y28.572 E201.67347
G0 X60.745 Y28.572
G1 X151.427 Y119.254 E203.64355
G0 X151.427 Y119.749
G1 X60.25 Y28.572 E205.62437
G0 X59.755 Y28.572
G1 X151.427 Y120.244 E207.61596
G0 X151.427 Y120.739
G1 X59.26 Y28.572 E209.61829
G0 X58.765 Y28.572
G1 X151.427 Y121.234 E211.63138
G0 X151.427 Y121.729
G1 X58.27 Y28.572 E213.65523
G0 X57.775 Y28.572
G1 X151.427 Y122.224 E215.68982
G0 X151.427 Y122.719
G1 X57.28 Y28.572 E217.73517
G0 X56.785 Y28.572
G1 X151.427 Y123.214 E219.79128
G0 X151.427 Y123.709
G1 X56.29 Y28.572 E221.85814
G0 X55.795 Y28.572
G1 X151.427 Y124.204 E223.93575
G0 X151.427 Y124.698
G1 X55.3 Y28.572 E226.02411
G0 X54.805 Y28.572
G1 X151.427 Y125.193 E228.12322
G0 X151.427 Y125.688
G1 X54.31 Y28.572 E230.23308
G0 X53.815 Y28.572
G1 X151.427 Y126.183 E232.3537
G0 X151.427 Y126.678
G1 X53.32 Y28.572 E234.48507
G0 X52.825 Y28.572
G1 X151.427 Y127.173 E236.6272
G0 X151.427 Y127.668
G1 X52.33 Y28.572 E238.78008
G0 X51.835 Y28.572
G1 X151.427 Y128.163 E240.94371
G0 X151.427 Y128.658
G1 X51.34 Y28.572 E243.1181
G0 X50.845 Y28.572
G1 X151.427 Y129.153 E245.30324
G0 X151.427 Y129.648
G1 X50.35 Y28.572 E247.49914
G0 X49.855 Y28.572
G1 X151.427 Y130.143 E249.70579
G0 X151.427 Y130.638
G1 X49.361 Y28.572 E251.92318
G0 X48.866 Y28.572
G1 X151.427 Y131.133 E254.15133
G0 X151.427 Y131.628
G1 X48.371 Y28.572 E256.39023
G0 X47.876 Y28.572
G1 X151.427 Y132.123 E258.63988
G0 X151.427 Y132.618
G1 X47.381 Y28.572 E260.90029
G0 X46.886 Y28.572
G1 X151.427 Y133.113 E263.17145
G0 X151.427 Y133.608
G1 X46.391 Y28.572 E265.45337
G0 X45.896 Y28.572
G1 X151.427 Y134.103 E267.74604
G0 X151.427 Y134.598
G1 X45.401 Y28.572 E270.04946
G0 X44.906 Y28.572
G1 X151.427 Y135.093 E272.36364
G0 X151.427 Y135.588
G1 X44.411 Y28.572 E274.68857
G0 X43.916 Y28.572
G1 X151.427 Y136.083 E277.02426
G0 X151.427 Y136.578
G1 X43.421 Y28.572 E279.37069
G0 X42.926 Y28.572
G1 X151.427 Y137.073 E281.72789
G0 X151.427 Y137.568
G1 X42.431 Y28.572 E284.09584
G0 X41.936 Y28.572
G1 X151.427 Y138.063 E286.47454
G0 X151.427 Y138.558
G1 X41.441 Y28.572 E288.86399
G0 X40.946 Y28.572
G1 X151.427 Y139.053 E291.2642
G0 X151.427 Y139.548
G1 X40.451 Y28.572 E293.67516
G0 X39.956 Y28.572
G1 X151.427 Y140.043 E296.09688
G0 X151.427 Y140.538
G1 X39.461 Y28.572 E298.52935
G0 X38.966 Y28.572
G1 X151.427 Y141.033 E300.97258
G0 X151.427 Y141.528
G1 X38.471 Y28.572 E303.42655
G0 X37.976 Y28.572
G1 X151.427 Y142.023 E305.89129
G0 X151.427 Y142.518
G1 X37.481 Y28.572 E308.36677
G0 X36.986 Y28.572
G1 X151.427 Y143.013 E310.85301
G0 X151.427 Y143.508
G1 X36.491 Y28.572 E313.35001
G0 X35.996 Y28.572
G1 X151.427 Y144.003 E315.85776
G0 X151.427 Y144.497
G1 X35.501 Y28.572 E318.37625
G0 X35.006 Y28.572
G1 X151.427 Y144.992 E320.90549
G0 X151.427 Y145.487
G1 X34.511 Y28.572 E323.44549
G0 X34.016 Y28.572
G1 X151.427 Y145.982 E325.99625
G0 X151.377 Y146.427
G1 X33.571 Y28.621 E328.55559
G0 X33.571 Y29.116
G1 X150.882 Y146.427 E331.10418
G0 X150.387 Y146.427
G1 X33.571 Y29.611 E333.64202
G0 X33.571 Y30.106
G1 X149.892 Y146.427 E336.1691
G0 X149.397 Y146.427
G1 X33.571 Y30.601 E338.68543
G0 X33.571 Y31.096
G1 X148.902 Y146.427 E341.19101
G0 X148.407 Y146.427
G1 X33.571 Y31.591 E343.68583
G0 X33.571 Y32.086
G1 X147.912 Y146.427 E346.1699
G0 X147.417 Y146.427
G1 X33.571 Y32.581 E348.64321
G0 X33.571 Y33.076
G1 X146.922 Y146.427 E351.10577
G0 X146.427 Y146.427
G1 X33.571 Y33.571 E353.55758
G0 X33.571 Y34.066
G1 X145.932 Y146.427 E355.99863
G0 X145.437 Y146.427
G1 X33.571 Y34.561 E358.42893
G0 X33.571 Y35.056
G1 X144.942 Y146.427 E360.84847
G0 X144.447 Y146.427
G1 X33.571 Y35.551 E363.25726
G0 X33.571 Y36.046
G1 X143.952 Y146.427 E365.6553
G0 X143.457 Y146.427
G1 X33.571 Y36.541 E368.04258
G0 X33.571 Y37.036
G1 X142.962 Y146.427 E370.41911
G0 X142.467 Y146.427
G1 X33.571 Y37.531 E372.78489
G0 X33.571 Y38.026
G1 X141.972 Y146.427 E375.13991
G0 X141.477 Y146.427
G1 X33.571 Y38.521 E377.48417
G0 X33.571 Y39.016
G1 X140.982 Y146.427 E379.81769
G0 X140.487 Y146.427
G1 X33.571 Y39.511 E382.14045
G0 X33.571 Y40.005
G1 X139.993 Y146.427 E384.45247
G0 X139.498 Y146.427
G1 X33.571 Y40.5 E386.75375
G0 X33.571 Y40.995
G1 X139.003 Y146.427 E389.04426
G0 X138.508 Y146.427
G1 X33.571 Y41.49 E391.32403
G0 X33.571 Y41.985
G1 X138.013 Y146.427 E393.59304
G0 X137.518 Y146.427
G1 X33.571 Y42.48 E395.8513
G0 X33.571 Y42.975
G1 X137.023 Y146.427 E398.0988
G0 X136.528 Y146.427
G1 X33.571 Y43.47 E400.33555
G0 X33.571 Y43.965
G1 X136.033 Y146.427 E402.56155
G0 X135.538 Y146.427
G1 X33.571 Y44.46 E404.77679
G0 X33.571 Y44.955
G1 X135.043 Y146.427 E406.98128
G0 X134.548 Y146.427
G1 X33.571 Y45.45 E409.17501
G0 X33.571 Y45.945
G1 X134.053 Y146.427 E411.35799
G0 X133.558 Y146.427
G1 X33.571 Y46.44 E413.53022
G0 X33.571 Y46.935
G1 X133.063 Y146.427 E415.69169
G0 X132.568 Y146.427
G1 X33.571 Y47.43 E417.84241
G0 X33.571 Y47.925
G1 X132.073 Y146.427 E419.98237
G0 X131.578 Y146.427
G1 X33.571 Y48.42 E422.11158
G0 X33.571 Y48.915
G1 X131.083 Y146.427 E424.23004
G0 X130.588 Y146.427
