;FLAVOR:Marlin
;TIME:1528
;Filament used: 0.672561m
;Layer height: 0.2
;Generated with Cura_SteamEngine 4.0.0
M82 ;absolute extrusion mode
M98 P0:/sys/startprint.g

G92 E0
G10
;LAYER_COUNT:100
;LAYER:0
M107
G0 F3600 X79.992 Y75.358 Z0.28
;TYPE:SKIRT
G11
G1 F1800 X80.388 Y74.967 E0.00855
G1 X80.835 Y74.636 E0.01709
G1 X81.325 Y74.372 E0.02564
G1 X81.848 Y74.182 E0.03419
G1 X82.393 Y74.069 E0.04274
G1 X82.909 Y74.034 E0.05069
G1 X102.091 Y74.035 E0.34536
G1 X102.646 Y74.075 E0.35391
G1 X103.19 Y74.194 E0.36246
G1 X103.711 Y74.39 E0.37101
G1 X104.198 Y74.658 E0.37955
G1 X104.642 Y74.993 E0.3881
G1 X105.034 Y75.389 E0.39666
G1 X105.364 Y75.836 E0.40519
G1 X105.628 Y76.326 E0.41374
G1 X105.818 Y76.849 E0.42229
G1 X105.931 Y77.394 E0.43084
G1 X105.966 Y77.91 E0.43879
G1 X105.966 Y97.091 E0.73344
G1 X105.926 Y97.646 E0.74199
G1 X105.807 Y98.19 E0.75055
G1 X105.611 Y98.71 E0.75908
G1 X105.343 Y99.198 E0.76764
G1 X105.008 Y99.642 E0.77618
G1 X104.612 Y100.033 E0.78473
G1 X104.165 Y100.364 E0.79327
G1 X103.675 Y100.628 E0.80182
G1 X103.152 Y100.818 E0.81037
G1 X102.607 Y100.931 E0.81892
G1 X102.091 Y100.966 E0.82687
G1 X82.909 Y100.966 E1.12154
G1 X82.354 Y100.926 E1.13009
G1 X81.81 Y100.807 E1.13864
G1 X81.29 Y100.611 E1.14718
G1 X80.802 Y100.343 E1.15573
G1 X80.358 Y100.008 E1.16428
G1 X79.967 Y99.612 E1.17283
G1 X79.636 Y99.165 E1.18137
G1 X79.372 Y98.675 E1.18992
G1 X79.182 Y98.152 E1.19847
G1 X79.069 Y97.607 E1.20702
G1 X79.034 Y97.091 E1.21496
G1 X79.034 Y77.909 E1.50964
G1 X79.074 Y77.354 E1.51819
G1 X79.193 Y76.81 E1.52674
G1 X79.389 Y76.29 E1.53528
G1 X79.657 Y75.802 E1.54383
G1 X79.992 Y75.358 E1.55237
G0 F3600 X80.338 Y75.497
G1 F1800 X80.729 Y75.139 E1.56052
G1 X81.17 Y74.843 E1.56868
G1 X81.65 Y74.617 E1.57683
G1 X82.158 Y74.465 E1.58497
G1 X82.909 Y74.384 E1.59658
G1 X102.091 Y74.385 E1.89125
G1 X102.62 Y74.425 E1.8994
G1 X103.137 Y74.544 E1.90755
G1 X103.631 Y74.739 E1.91571
G1 X104.089 Y75.006 E1.92385
G1 X104.503 Y75.339 E1.93201
G1 X104.861 Y75.73 E1.94016
G1 X105.157 Y76.171 E1.94832
G1 X105.383 Y76.651 E1.95647
G1 X105.535 Y77.159 E1.96461
G1 X105.616 Y77.91 E1.97622
G1 X105.616 Y97.091 E2.27087
G1 X105.576 Y97.62 E2.27902
G1 X105.457 Y98.137 E2.28717
G1 X105.262 Y98.631 E2.29533
G1 X104.995 Y99.089 E2.30348
G1 X104.662 Y99.503 E2.31164
G1 X104.271 Y99.861 E2.31978
G1 X103.83 Y100.157 E2.32794
G1 X103.35 Y100.383 E2.33609
G1 X102.842 Y100.535 E2.34424
G1 X102.091 Y100.616 E2.35584
G1 X82.909 Y100.616 E2.65051
G1 X82.38 Y100.576 E2.65866
G1 X81.863 Y100.457 E2.66681
G1 X81.369 Y100.262 E2.67497
G1 X80.911 Y99.995 E2.68312
G1 X80.497 Y99.662 E2.69128
G1 X80.139 Y99.271 E2.69942
G1 X79.843 Y98.83 E2.70758
G1 X79.617 Y98.35 E2.71573
G1 X79.465 Y97.842 E2.72388
G1 X79.384 Y97.091 E2.73548
G1 X79.384 Y77.909 E3.03015
G1 X79.424 Y77.38 E3.0383
G1 X79.543 Y76.863 E3.04645
G1 X79.738 Y76.369 E3.05461
G1 X80.005 Y75.911 E3.06276
G1 X80.338 Y75.497 E3.07092
G0 F3600 X80.683 Y75.645
G1 F1800 X81.069 Y75.322 E3.07865
G1 X81.501 Y75.063 E3.08639
G1 X81.969 Y74.876 E3.09413
G1 X82.46 Y74.766 E3.10186
G1 X82.909 Y74.734 E3.10877
G1 X102.091 Y74.735 E3.40345
G1 X102.593 Y74.775 E3.41118
G1 X103.083 Y74.894 E3.41893
G1 X103.547 Y75.089 E3.42666
G1 X103.975 Y75.354 E3.43439
G1 X104.355 Y75.684 E3.44213
G1 X104.679 Y76.07 E3.44987
G1 X104.937 Y76.502 E3.4576
G1 X105.124 Y76.97 E3.46534
G1 X105.234 Y77.461 E3.47307
G1 X105.266 Y77.91 E3.47998
G1 X105.266 Y97.091 E3.77464
G1 X105.226 Y97.593 E3.78238
G1 X105.107 Y98.082 E3.79011
G1 X104.913 Y98.547 E3.79785
G1 X104.647 Y98.975 E3.80559
G1 X104.317 Y99.355 E3.81332
G1 X103.931 Y99.678 E3.82105
G1 X103.499 Y99.937 E3.82879
G1 X103.031 Y100.124 E3.83653
G1 X102.54 Y100.234 E3.84426
G1 X102.091 Y100.266 E3.85118
G1 X82.909 Y100.266 E4.14585
G1 X82.407 Y100.226 E4.15359
G1 X81.918 Y100.107 E4.16132
G1 X81.453 Y99.913 E4.16906
G1 X81.025 Y99.647 E4.1768
G1 X80.645 Y99.317 E4.18453
G1 X80.322 Y98.931 E4.19226
G1 X80.063 Y98.499 E4.2
G1 X79.876 Y98.031 E4.20774
G1 X79.766 Y97.54 E4.21547
G1 X79.734 Y97.091 E4.22239
G1 X79.734 Y77.909 E4.51706
G1 X79.774 Y77.407 E4.5248
G1 X79.893 Y76.918 E4.53253
G1 X80.087 Y76.453 E4.54027
G1 X80.353 Y76.025 E4.54801
G1 X80.683 Y75.645 E4.55574
G10
;MESH:xyzCalibration_cube.stl
G0 F3600 X83.439 Y77.204
G0 X83.439 Y78.439
G0 X101.505 Y96.505
G0 X101.925 Y96.925
;TYPE:WALL-OUTER
G11
G1 F1800 X83.075 Y96.925 E4.84531
G1 X83.075 Y78.075 E5.13489
G1 X101.925 Y78.075 E5.42446
G1 X101.925 Y96.925 E5.71403
G0 F3600 X101.725 Y96.925
G0 X101.575 Y96.575
;TYPE:WALL-INNER
G1 F1800 X83.425 Y96.575 E5.99285
G1 X83.425 Y78.425 E6.27167
G1 X101.575 Y78.425 E6.55049
G1 X101.575 Y96.575 E6.82931
G0 F3600 X101.225 Y96.225
G1 F1800 X83.775 Y96.225 E7.09738
G1 X83.775 Y78.775 E7.36544
G1 X101.225 Y78.775 E7.63351
G1 X101.225 Y96.225 E7.90157
G0 F3600 X100.875 Y95.875
G1 F1800 X84.125 Y95.875 E8.15889
G1 X84.125 Y79.125 E8.4162
G1 X100.875 Y79.125 E8.67351
G1 X100.875 Y95.875 E8.93083
G0 F3600 X100.535 Y95.535
;TYPE:SKIN
G1 F1800 X84.465 Y95.535 E9.17769
G1 X84.465 Y79.465 E9.42456
G1 X100.535 Y79.465 E9.67143
G1 X100.535 Y95.535 E9.91829
G0 F3600 X100.377 Y80.083
G1 F1800 X99.916 Y79.622 E9.92831
G0 F3600 X99.421 Y79.622
G1 F1800 X100.377 Y80.578 E9.94908
G0 F3600 X100.377 Y81.073
G1 F1800 X98.926 Y79.622 E9.9806
G0 F3600 X98.431 Y79.622
G1 F1800 X100.377 Y81.568 E10.02288
G0 F3600 X100.377 Y82.063
G1 F1800 X97.936 Y79.622 E10.07591
G0 F3600 X97.441 Y79.622
G1 F1800 X100.377 Y82.558 E10.13969
G0 F3600 X100.377 Y83.053
G1 F1800 X96.946 Y79.622 E10.21423
G0 F3600 X96.451 Y79.622
G1 F1800 X100.377 Y83.548 E10.29952
G0 F3600 X100.377 Y84.043
G1 F1800 X95.956 Y79.622 E10.39557
G0 F3600 X95.461 Y79.622
G1 F1800 X100.377 Y84.538 E10.50237
G0 F3600 X100.377 Y85.033
G1 F1800 X94.966 Y79.622 E10.61993
G0 F3600 X94.471 Y79.622
G1 F1800 X100.377 Y85.528 E10.74823
G0 F3600 X100.377 Y86.023
G1 F1800 X93.976 Y79.622 E10.8873
G0 F3600 X93.481 Y79.622
G1 F1800 X100.377 Y86.518 E11.03711
G0 F3600 X100.377 Y87.013
G1 F1800 X92.986 Y79.622 E11.19768
G0 F3600 X92.491 Y79.622
G1 F1800 X100.377 Y87.507 E11.369
G0 F3600 X100.377 Y88.002
G1 F1800 X91.996 Y79.622 E11.55106
G0 F3600 X91.501 Y79.622
G1 F1800 X100.377 Y88.497 E11.74388
G0 F3600 X100.377 Y88.992
G1 F1800 X91.006 Y79.622 E11.94746
G0 F3600 X90.511 Y79.622
G1 F1800 X100.377 Y89.487 E12.16179
G0 F3600 X100.377 Y89.982
G1 F1800 X90.016 Y79.622 E12.38687
G0 F3600 X89.521 Y79.622
G1 F1800 X100.377 Y90.477 E12.62271
G0 F3600 X100.377 Y90.972
G1 F1800 X89.026 Y79.622 E12.8693
G0 F3600 X88.531 Y79.622
G1 F1800 X100.377 Y91.467 E13.12664
G0 F3600 X100.377 Y91.962
G1 F1800 X88.036 Y79.622 E13.39474
G0 F3600 X87.541 Y79.622
G1 F1800 X100.377 Y92.457 E13.67359
G0 F3600 X100.377 Y92.952
G1 F1800 X87.046 Y79.622 E13.9632
G0 F3600 X86.551 Y79.622
G1 F1800 X100.377 Y93.447 E14.26356
G0 F3600 X100.377 Y93.942
G1 F1800 X86.057 Y79.622 E14.57466
G0 F3600 X85.562 Y79.622
G1 F1800 X100.377 Y94.437 E14.89652
G0 F3600 X100.377 Y94.932
G1 F1800 X85.067 Y79.622 E15.22913
G0 F3600 X84.621 Y79.671
G1 F1800 X100.327 Y95.377 E15.57034
G0 F3600 X99.832 Y95.377
G1 F1800 X84.621 Y80.166 E15.9008
G0 F3600 X84.621 Y80.661
G1 F1800 X99.337 Y95.377 E16.22051
G0 F3600 X98.842 Y95.377
G1 F1800 X84.621 Y81.156 E16.52946
G0 F3600 X84.621 Y81.651
G1 F1800 X98.347 Y95.377 E16.82766
G0 F3600 X97.852 Y95.377
G1 F1800 X84.621 Y82.146 E17.11511
G0 F3600 X84.621 Y82.641
G1 F1800 X97.357 Y95.377 E17.3918
G0 F3600 X96.862 Y95.377
G1 F1800 X84.621 Y83.136 E17.65773
G0 F3600 X84.621 Y83.631
G1 F1800 X96.367 Y95.377 E17.91292
G0 F3600 X95.872 Y95.377
G1 F1800 X84.621 Y84.126 E18.15735
G0 F3600 X84.621 Y84.621
G1 F1800 X95.377 Y95.377 E18.39102
G0 F3600 X94.882 Y95.377
G1 F1800 X84.621 Y85.116 E18.61394
G0 F3600 X84.621 Y85.611
G1 F1800 X94.387 Y95.377 E18.82611
G0 F3600 X93.892 Y95.377
G1 F1800 X84.621 Y86.106 E19.02752
G0 F3600 X84.621 Y86.601
G1 F1800 X93.397 Y95.377 E19.21818
G0 F3600 X92.902 Y95.377
G1 F1800 X84.621 Y87.096 E19.39809
G0 F3600 X84.621 Y87.591
G1 F1800 X92.407 Y95.377 E19.56724
G0 F3600 X91.912 Y95.377
G1 F1800 X84.621 Y88.086 E19.72564
G0 F3600 X84.621 Y88.581
G1 F1800 X91.417 Y95.377 E19.87328
G0 F3600 X90.922 Y95.377
G1 F1800 X84.621 Y89.076 E20.01017
G0 F3600 X84.621 Y89.571
G1 F1800 X90.427 Y95.377 E20.13631
G0 F3600 X89.932 Y95.377
G1 F1800 X84.621 Y90.066 E20.25169
G0 F3600 X84.621 Y90.561
G1 F1800 X89.437 Y95.377 E20.35632
G0 F3600 X88.942 Y95.377
G1 F1800 X84.621 Y91.056 E20.45019
G0 F3600 X84.621 Y91.551
G1 F1800 X88.447 Y95.377 E20.53331
G0 F3600 X87.952 Y95.377
G1 F1800 X84.621 Y92.046 E20.60568
G0 F3600 X84.621 Y92.541
G1 F1800 X87.457 Y95.377 E20.66729
G0 F3600 X86.962 Y95.377
G1 F1800 X84.621 Y93.036 E20.71815
G0 F3600 X84.621 Y93.531
G1 F1800 X86.467 Y95.377 E20.75825
G0 F3600 X85.972 Y95.377
G1 F1800 X84.621 Y94.026 E20.7876
G0 F3600 X84.621 Y94.521
G1 F1800 X85.477 Y95.377 E20.8062
G0 F3600 X84.982 Y95.377
G1 F1800 X84.621 Y95.016 E20.81404
;MESH:NONMESH
G0 F3600 X101.505 Y96.505
G0 X102.325 Y97.325
;TIME_ELAPSED:51.319818
;LAYER:1
M106 S255
;MESH:xyzCalibration_cube.stl
G0 F5400 X102.325 Y97.325 Z0.48
;TYPE:WALL-OUTER
G1 F1800 X82.675 Y97.325 E21.02966
G1 X82.675 Y77.675 E21.24527
G1 X102.325 Y77.675 E21.46089
G1 X102.325 Y97.325 E21.67651
G0 F5400 X102.125 Y97.325
G0 X101.975 Y96.975
;TYPE:WALL-INNER
G1 F2700 X83.025 Y96.975 E21.88444
G1 X83.025 Y78.025 E22.09238
G1 X101.975 Y78.025 E22.30031
G1 X101.975 Y96.975 E22.50825
G0 F5400 X101.625 Y96.625
G1 F2700 X83.375 Y96.625 E22.7085
G1 X83.375 Y78.375 E22.90875
G1 X101.625 Y78.375 E23.10901
G1 X101.625 Y96.625 E23.30926
G0 F5400 X101.275 Y96.275
G1 F2700 X83.725 Y96.275 E23.50183
G1 X83.725 Y78.725 E23.69441
G1 X101.275 Y78.725 E23.88698
G1 X101.275 Y96.275 E24.07955
G0 F5400 X100.925 Y95.925
G1 F2700 X84.075 Y95.925 E24.26445
G1 X84.075 Y79.075 E24.44934
G1 X100.925 Y79.075 E24.63423
G1 X100.925 Y95.925 E24.81912
G0 F5400 X100.585 Y95.585
;TYPE:SKIN
G1 F1800 X84.415 Y95.585 E24.99655
G1 X84.415 Y79.415 E25.17398
G1 X100.585 Y79.415 E25.35141
G1 X100.585 Y95.585 E25.52884
G0 F5400 X100.427 Y95.087
G1 F1800 X100.086 Y95.428 E25.53414
G0 F5400 X99.591 Y95.428
G1 F1800 X100.427 Y94.592 E25.54711
G0 F5400 X100.427 Y94.097
G1 F1800 X99.096 Y95.428 E25.56776
G0 F5400 X98.601 Y95.428
G1 F1800 X100.427 Y93.602 E25.5961
G0 F5400 X100.427 Y93.107
G1 F1800 X98.106 Y95.428 E25.63212
G0 F5400 X97.611 Y95.428
G1 F1800 X100.427 Y92.612 E25.67581
G0 F5400 X100.427 Y92.117
G1 F1800 X97.116 Y95.428 E25.72719
G0 F5400 X96.621 Y95.428
G1 F1800 X100.427 Y91.622 E25.78626
G0 F5400 X100.427 Y91.127
G1 F1800 X96.126 Y95.428 E25.853
G0 F5400 X95.631 Y95.428
G1 F1800 X100.427 Y90.632 E25.92742
G0 F5400 X100.427 Y90.137
G1 F1800 X95.136 Y95.428 E26.00953
G0 F5400 X94.642 Y95.428
G1 F1800 X100.427 Y89.642 E26.09931
G0 F5400 X100.427 Y89.147
G1 F1800 X94.147 Y95.428 E26.19677
G0 F5400 X93.652 Y95.428
G1 F1800 X100.427 Y88.652 E26.30191
G0 F5400 X100.427 Y88.157
G1 F1800 X93.157 Y95.428 E26.41473
G0 F5400 X92.662 Y95.428
G1 F1800 X100.427 Y87.662 E26.53524
G0 F5400 X100.427 Y87.167
G1 F1800 X92.167 Y95.428 E26.66342
G0 F5400 X91.672 Y95.428
G1 F1800 X100.427 Y86.672 E26.79929
G0 F5400 X100.427 Y86.177
G1 F1800 X91.177 Y95.428 E26.94284
G0 F5400 X90.682 Y95.428
G1 F1800 X100.427 Y85.682 E27.09407
G0 F5400 X100.427 Y85.187
G1 F1800 X90.187 Y95.428 E27.25298
G0 F5400 X89.692 Y95.428
G1 F1800 X100.427 Y84.693 E27.41956
G0 F5400 X100.427 Y84.198
G1 F1800 X89.197 Y95.428 E27.59383
G0 F5400 X88.702 Y95.428
G1 F1800 X100.427 Y83.703 E27.77578
G0 F5400 X100.427 Y83.208
G1 F1800 X88.207 Y95.428 E27.96541
G0 F5400 X87.712 Y95.428
G1 F1800 X100.427 Y82.713 E28.16272
G0 F5400 X100.427 Y82.218
G1 F1800 X87.217 Y95.428 E28.36771
G0 F5400 X86.722 Y95.428
G1 F1800 X100.427 Y81.723 E28.58038
G0 F5400 X100.427 Y81.228
G1 F1800 X86.227 Y95.428 E28.80074
G0 F5400 X85.732 Y95.428
G1 F1800 X100.427 Y80.733 E29.02877
G0 F5400 X100.427 Y80.238
G1 F1800 X85.237 Y95.428 E29.26449
G0 F5400 X84.742 Y95.428
G1 F1800 X100.427 Y79.743 E29.50789
G0 F5400 X100.103 Y79.572
G1 F1800 X84.572 Y95.103 E29.7489
G0 F5400 X84.572 Y94.608
G1 F1800 X99.608 Y79.572 E29.98222
G0 F5400 X99.113 Y79.572
G1 F1800 X84.572 Y94.113 E30.20787
G0 F5400 X84.572 Y93.618
G1 F1800 X98.618 Y79.572 E30.42583
G0 F5400 X98.123 Y79.572
G1 F1800 X84.572 Y93.123 E30.63612
G0 F5400 X84.572 Y92.628
G1 F1800 X97.628 Y79.572 E30.83872
G0 F5400 X97.133 Y79.572
G1 F1800 X84.572 Y92.133 E31.03364
G0 F5400 X84.572 Y91.638
G1 F1800 X96.638 Y79.572 E31.22088
G0 F5400 X96.143 Y79.572
G1 F1800 X84.572 Y91.143 E31.40044
G0 F5400 X84.572 Y90.648
G1 F1800 X95.648 Y79.572 E31.57231
G0 F5400 X95.153 Y79.572
G1 F1800 X84.572 Y90.153 E31.73651
G0 F5400 X84.572 Y89.659
G1 F1800 X94.658 Y79.572 E31.89303
G0 F5400 X94.163 Y79.572
G1 F1800 X84.572 Y89.164 E32.04187
G0 F5400 X84.572 Y88.669
G1 F1800 X93.669 Y79.572 E32.18304
G0 F5400 X93.174 Y79.572
G1 F1800 X84.572 Y88.174 E32.31652
G0 F5400 X84.572 Y87.679
G1 F1800 X92.679 Y79.572 E32.44232
G0 F5400 X92.184 Y79.572
G1 F1800 X84.572 Y87.184 E32.56045
G0 F5400 X84.572 Y86.689
G1 F1800 X91.689 Y79.572 E32.67089
G0 F5400 X91.194 Y79.572
G1 F1800 X84.572 Y86.194 E32.77365
G0 F5400 X84.572 Y85.699
G1 F1800 X90.699 Y79.572 E32.86873
G0 F5400 X90.204 Y79.572
G1 F1800 X84.572 Y85.204 E32.95612
G0 F5400 X84.572 Y84.709
G1 F1800 X89.709 Y79.572 E33.03584
G0 F5400 X89.214 Y79.572
G1 F1800 X84.572 Y84.214 E33.10787
G0 F5400 X84.572 Y83.719
G1 F1800 X88.719 Y79.572 E33.17223
G0 F5400 X88.224 Y79.572
G1 F1800 X84.572 Y83.224 E33.2289
G0 F5400 X84.572 Y82.729
G1 F1800 X87.729 Y79.572 E33.27789
G0 F5400 X87.234 Y79.572
G1 F1800 X84.572 Y82.234 E33.3192
G0 F5400 X84.572 Y81.739
G1 F1800 X86.739 Y79.572 E33.35282
G0 F5400 X86.244 Y79.572
G1 F1800 X84.572 Y81.244 E33.37877
G0 F5400 X84.572 Y80.749
G1 F1800 X85.749 Y79.572 E33.39703
G0 F5400 X85.254 Y79.572
G1 F1800 X84.572 Y80.254 E33.40762
G0 F5400 X84.572 Y79.759
G1 F1800 X84.759 Y79.572 E33.41052
;MESH:NONMESH
G0 F5400 X101.905 Y96.905
G0 X102.325 Y97.325
;TIME_ELAPSED:88.221690
;LAYER:2
;MESH:xyzCalibration_cube.stl
G0 F7200 X102.325 Y97.325 Z0.68
;TYPE:WALL-OUTER
G1 F1800 X82.675 Y97.325 E33.62613
G1 X82.675 Y77.675 E33.84175
G1 X102.325 Y77.675 E34.05737
G1 X102.325 Y97.325 E34.27298
G0 F7200 X102.125 Y97.325
G0 X101.975 Y96.975
;TYPE:WALL-INNER
G1 F3600 X83.025 Y96.975 E34.48092
G1 X83.025 Y78.025 E34.68885
G1 X101.975 Y78.025 E34.89679
G1 X101.975 Y96.975 E35.10472
G0 F7200 X101.625 Y96.625
G1 F3600 X83.375 Y96.625 E35.30498
G1 X83.375 Y78.375 E35.50523
G1 X101.625 Y78.375 E35.70549
G1 X101.625 Y96.625 E35.90574
G0 F7200 X101.275 Y96.275
G1 F3600 X83.725 Y96.275 E36.09831
G1 X83.725 Y78.725 E36.29089
G1 X101.275 Y78.725 E36.48346
G1 X101.275 Y96.275 E36.67603
G0 F7200 X100.935 Y95.935
;TYPE:SKIN
G1 F1800 X84.065 Y95.935 E36.86114
G1 X84.065 Y79.065 E37.04625
G1 X100.935 Y79.065 E37.23137
G1 X100.935 Y95.935 E37.41648
G0 F7200 X100.777 Y79.493
G1 F1800 X100.506 Y79.222 E37.42068
G0 F7200 X100.011 Y79.222
G1 F1800 X100.777 Y79.988 E37.43257
G0 F7200 X100.777 Y80.483
G1 F1800 X99.516 Y79.222 E37.45214
G0 F7200 X99.021 Y79.222
G1 F1800 X100.777 Y80.978 E37.47939
G0 F7200 X100.777 Y81.473
G1 F1800 X98.526 Y79.222 E37.51432
G0 F7200 X98.031 Y79.222
G1 F1800 X100.777 Y81.968 E37.55693
G0 F7200 X100.777 Y82.463
G1 F1800 X97.536 Y79.222 E37.60722
G0 F7200 X97.041 Y79.222
G1 F1800 X100.777 Y82.958 E37.6652
G0 F7200 X100.777 Y83.453
G1 F1800 X96.546 Y79.222 E37.73086
G0 F7200 X96.051 Y79.222
G1 F1800 X100.777 Y83.948 E37.80419
G0 F7200 X100.777 Y84.443
G1 F1800 X95.556 Y79.222 E37.88521
G0 F7200 X95.061 Y79.222
G1 F1800 X100.777 Y84.938 E37.97391
G0 F7200 X100.777 Y85.433
G1 F1800 X94.566 Y79.222 E38.07029
G0 F7200 X94.071 Y79.222
G1 F1800 X100.777 Y85.928 E38.17436
G0 F7200 X100.777 Y86.423
G1 F1800 X93.576 Y79.222 E38.2861
G0 F7200 X93.081 Y79.222
G1 F1800 X100.777 Y86.918 E38.40553
G0 F7200 X100.777 Y87.413
G1 F1800 X92.586 Y79.222 E38.53263
G0 F7200 X92.091 Y79.222
G1 F1800 X100.777 Y87.908 E38.66742
G0 F7200 X100.777 Y88.403
G1 F1800 X91.596 Y79.222 E38.80989
G0 F7200 X91.101 Y79.222
