;FLAVOR:Marlin
;TIME:538
;Filament used: 0.857455m
;Layer height: 0.4
;Generated with Cura_SteamEngine 4.0.0
M82 ;absolute extrusion mode
M98 P0:/sys/startprint.g

G92 E0
G10
;LAYER_COUNT:51
;LAYER:0
M107
G0 F3600 X79.528 Y74.572 Z0.4
;TYPE:SKIRT
G11
G1 F1800 X79.988 Y74.163 E0.02702
G1 X80.498 Y73.816 E0.05409
G1 X81.048 Y73.539 E0.08112
G1 X81.629 Y73.335 E0.10815
G1 X82.232 Y73.207 E0.1352
G1 X82.909 Y73.159 E0.16499
G1 X102.091 Y73.16 E1.00692
G1 X102.706 Y73.2 E1.03397
G1 X103.311 Y73.319 E1.06103
G1 X103.894 Y73.516 E1.08804
G1 X104.448 Y73.786 E1.11509
G1 X104.962 Y74.126 E1.14214
G1 X105.428 Y74.529 E1.16918
G1 X105.837 Y74.99 E1.19623
G1 X106.184 Y75.499 E1.22327
G1 X106.461 Y76.049 E1.25029
G1 X106.665 Y76.63 E1.27732
G1 X106.793 Y77.233 E1.30438
G1 X106.841 Y77.91 E1.33417
G1 X106.841 Y97.091 E2.17605
G1 X106.801 Y97.706 E2.2031
G1 X106.682 Y98.31 E2.23012
G1 X106.485 Y98.894 E2.25717
G1 X106.215 Y99.448 E2.28422
G1 X105.875 Y99.962 E2.31127
G1 X105.472 Y100.428 E2.33831
G1 X105.012 Y100.837 E2.36532
G1 X104.502 Y101.184 E2.3924
G1 X103.952 Y101.461 E2.41943
G1 X103.371 Y101.665 E2.44646
G1 X102.768 Y101.793 E2.47351
G1 X102.091 Y101.841 E2.5033
G1 X82.909 Y101.841 E3.34522
G1 X82.294 Y101.801 E3.37227
G1 X81.69 Y101.682 E3.39929
G1 X81.106 Y101.485 E3.42634
G1 X80.552 Y101.215 E3.45339
G1 X80.038 Y100.875 E3.48044
G1 X79.572 Y100.472 E3.50748
G1 X79.163 Y100.012 E3.5345
G1 X78.816 Y99.502 E3.56158
G1 X78.539 Y98.952 E3.5886
G1 X78.335 Y98.371 E3.61563
G1 X78.207 Y97.768 E3.64269
G1 X78.159 Y97.091 E3.67248
G1 X78.159 Y77.909 E4.5144
G1 X78.199 Y77.294 E4.54145
G1 X78.318 Y76.69 E4.56847
G1 X78.515 Y76.106 E4.59552
G1 X78.785 Y75.552 E4.62257
G1 X79.125 Y75.038 E4.64962
G1 X79.528 Y74.572 E4.67666
G0 F3600 X80.216 Y74.884
G1 F1800 X80.667 Y74.536 E4.70166
G1 X81.161 Y74.256 E4.72659
G1 X81.69 Y74.047 E4.75155
G1 X82.244 Y73.914 E4.77656
G1 X82.909 Y73.859 E4.80585
G1 X102.091 Y73.86 E5.64777
G1 X102.659 Y73.9 E5.67276
G1 X103.215 Y74.019 E5.69772
G1 X103.749 Y74.215 E5.72268
G1 X104.25 Y74.484 E5.74764
G1 X104.709 Y74.82 E5.77261
G1 X105.116 Y75.217 E5.79756
G1 X105.464 Y75.668 E5.82257
G1 X105.745 Y76.162 E5.84751
G1 X105.953 Y76.692 E5.8725
G1 X106.086 Y77.245 E5.89747
G1 X106.141 Y77.91 E5.92675
G1 X106.141 Y97.091 E6.76863
G1 X106.101 Y97.658 E6.79358
G1 X105.982 Y98.215 E6.81858
G1 X105.786 Y98.749 E6.84355
G1 X105.517 Y99.25 E6.86851
G1 X105.181 Y99.709 E6.89347
G1 X104.784 Y100.116 E6.91843
G1 X104.333 Y100.464 E6.94343
G1 X103.839 Y100.744 E6.96835
G1 X103.31 Y100.953 E6.99332
G1 X102.756 Y101.086 E7.01832
G1 X102.091 Y101.141 E7.04761
G1 X82.909 Y101.141 E7.88954
G1 X82.342 Y101.101 E7.91448
G1 X81.785 Y100.982 E7.93948
G1 X81.251 Y100.786 E7.96445
G1 X80.75 Y100.517 E7.98941
G1 X80.291 Y100.181 E8.01438
G1 X79.884 Y99.784 E8.03933
G1 X79.536 Y99.333 E8.06433
G1 X79.256 Y98.839 E8.08926
G1 X79.047 Y98.31 E8.11422
G1 X78.914 Y97.756 E8.13923
G1 X78.859 Y97.091 E8.16851
G1 X78.859 Y77.909 E9.01044
G1 X78.899 Y77.342 E9.03539
G1 X79.018 Y76.785 E9.06038
G1 X79.214 Y76.251 E9.08535
G1 X79.483 Y75.75 E9.11031
G1 X79.819 Y75.291 E9.13528
G1 X80.216 Y74.884 E9.16023
G0 F3600 X80.511 Y75.57
G1 F1800 X80.899 Y75.229 E9.1829
G1 X81.336 Y74.951 E9.20564
G1 X81.81 Y74.744 E9.22834
G1 X82.31 Y74.613 E9.25103
G1 X82.909 Y74.559 E9.27742
G1 X102.091 Y74.56 E10.11935
G1 X102.607 Y74.6 E10.14206
G1 X103.11 Y74.719 E10.16475
G1 X103.59 Y74.914 E10.18749
G1 X104.033 Y75.18 E10.21017
G1 X104.43 Y75.512 E10.23288
G1 X104.771 Y75.901 E10.25559
G1 X105.049 Y76.337 E10.27828
G1 X105.256 Y76.811 E10.30099
G1 X105.387 Y77.312 E10.32371
G1 X105.441 Y77.91 E10.35007
G1 X105.441 Y97.091 E11.19195
G1 X105.401 Y97.607 E11.21466
G1 X105.282 Y98.11 E11.23735
G1 X105.087 Y98.589 E11.26005
G1 X104.821 Y99.033 E11.28277
G1 X104.489 Y99.43 E11.30548
G1 X104.101 Y99.771 E11.32815
G1 X103.664 Y100.049 E11.35089
G1 X103.19 Y100.256 E11.37359
G1 X102.69 Y100.387 E11.39627
G1 X102.091 Y100.441 E11.42267
G1 X82.909 Y100.441 E12.26459
G1 X82.393 Y100.401 E12.28731
G1 X81.89 Y100.282 E12.31
G1 X81.411 Y100.087 E12.3327
G1 X80.967 Y99.821 E12.35541
G1 X80.57 Y99.489 E12.37813
G1 X80.229 Y99.101 E12.4008
G1 X79.951 Y98.664 E12.42353
G1 X79.744 Y98.19 E12.44624
G1 X79.613 Y97.69 E12.46892
G1 X79.559 Y97.091 E12.49532
G1 X79.559 Y77.909 E13.33724
G1 X79.599 Y77.393 E13.35996
G1 X79.718 Y76.89 E13.38264
G1 X79.913 Y76.411 E13.40534
G1 X80.179 Y75.967 E13.42806
G1 X80.511 Y75.57 E13.45078
G10
;MESH:xyzCalibration_cube.stl
G0 F3600 X82.016 Y78.964
G0 X83.964 Y78.964
G0 X100.98 Y95.98
G0 X101.75 Y96.75
;TYPE:WALL-OUTER
G11
G1 F1800 X83.25 Y96.75 E14.26277
G1 X83.25 Y78.25 E15.07475
G1 X101.75 Y78.25 E15.88674
G1 X101.75 Y96.75 E16.69873
G0 F3600 X101.35 Y96.75
G0 X101.05 Y96.05
;TYPE:WALL-INNER
G1 F1800 X83.95 Y96.05 E17.44927
G1 X83.95 Y78.95 E18.19981
G1 X101.05 Y78.95 E18.95036
G1 X101.05 Y96.05 E19.7009
G0 F3600 X100.35 Y95.35
G1 F1800 X84.65 Y95.35 E20.38999
G1 X84.65 Y79.65 E21.07908
G1 X100.35 Y79.65 E21.76818
G1 X100.35 Y95.35 E22.45727
G0 F3600 X99.66 Y94.66
;TYPE:SKIN
G1 F1800 X85.34 Y94.66 E23.08579
G1 X85.34 Y80.34 E23.71432
G1 X99.66 Y80.34 E24.34284
G1 X99.66 Y94.66 E24.97136
G0 F3600 X99.344 Y81.525
G1 F1800 X98.474 Y80.655 E25.02537
G0 F3600 X97.484 Y80.655
G1 F1800 X99.344 Y82.515 E25.14082
G0 F3600 X99.344 Y83.505
G1 F1800 X96.494 Y80.655 E25.31772
G0 F3600 X95.504 Y80.655
G1 F1800 X99.344 Y84.495 E25.55608
G0 F3600 X99.344 Y85.484
G1 F1800 X94.514 Y80.655 E25.85585
G0 F3600 X93.524 Y80.655
G1 F1800 X99.344 Y86.474 E26.21708
G0 F3600 X99.344 Y87.464
G1 F1800 X92.534 Y80.655 E26.63976
G0 F3600 X91.544 Y80.655
G1 F1800 X99.344 Y88.454 E27.12389
G0 F3600 X99.344 Y89.444
G1 F1800 X90.554 Y80.655 E27.66946
G0 F3600 X89.564 Y80.655
G1 F1800 X99.344 Y90.434 E28.27649
G0 F3600 X99.344 Y91.424
G1 F1800 X88.575 Y80.655 E28.94494
G0 F3600 X87.585 Y80.655
G1 F1800 X99.344 Y92.414 E29.67485
G0 F3600 X99.344 Y93.404
G1 F1800 X86.595 Y80.655 E30.4662
G0 F3600 X85.653 Y80.704
G1 F1800 X99.294 Y94.344 E31.31289
G0 F3600 X98.304 Y94.344
G1 F1800 X85.653 Y81.694 E32.09812
G0 F3600 X85.653 Y82.684
G1 F1800 X97.314 Y94.344 E32.82191
G0 F3600 X96.324 Y94.344
G1 F1800 X85.653 Y83.674 E33.48425
G0 F3600 X85.653 Y84.664
G1 F1800 X95.334 Y94.344 E34.08513
G0 F3600 X94.344 Y94.344
G1 F1800 X85.653 Y85.653 E34.6246
G0 F3600 X85.653 Y86.643
G1 F1800 X93.354 Y94.344 E35.10261
G0 F3600 X92.364 Y94.344
G1 F1800 X85.654 Y87.634 E35.51911
G0 F3600 X85.654 Y88.624
G1 F1800 X91.374 Y94.344 E35.87416
G0 F3600 X90.384 Y94.344
G1 F1800 X85.654 Y89.614 E36.16776
G0 F3600 X85.654 Y90.604
G1 F1800 X89.394 Y94.344 E36.39991
G0 F3600 X88.404 Y94.344
G1 F1800 X85.654 Y91.594 E36.5706
G0 F3600 X85.654 Y92.584
G1 F1800 X87.414 Y94.344 E36.67985
G0 F3600 X86.424 Y94.344
G1 F1800 X85.654 Y93.574 E36.72765
;MESH:NONMESH
G0 F3600 X100.98 Y95.98
G0 X102.15 Y97.15
;TIME_ELAPSED:33.581464
;LAYER:1
M106 S255
;MESH:xyzCalibration_cube.stl
G0 F5400 X102.15 Y97.15 Z0.8
;TYPE:WALL-OUTER
G1 F1800 X82.85 Y97.15 E37.57475
G1 X82.85 Y77.85 E38.42185
G1 X102.15 Y77.85 E39.26895
G1 X102.15 Y97.15 E40.11605
G0 F5400 X101.75 Y97.15
G0 X101.45 Y96.45
;TYPE:WALL-INNER
G1 F2700 X83.55 Y96.45 E40.90171
G1 X83.55 Y78.55 E41.68736
G1 X101.45 Y78.55 E42.47302
G1 X101.45 Y96.45 E43.25867
G0 F5400 X100.75 Y95.75
G1 F2700 X84.25 Y95.75 E43.98288
G1 X84.25 Y79.25 E44.70708
G1 X100.75 Y79.25 E45.43129
G1 X100.75 Y95.75 E46.1555
G0 F5400 X100.05 Y95.05
G1 F2700 X84.95 Y95.05 E46.81826
G1 X84.95 Y79.95 E47.48101
G1 X100.05 Y79.95 E48.14377
G1 X100.05 Y95.05 E48.80653
G0 F5400 X99.36 Y94.36
;TYPE:SKIN
G1 F1800 X85.64 Y94.36 E49.40872
G1 X85.64 Y80.64 E50.01091
G1 X99.36 Y80.64 E50.6131
G1 X99.36 Y94.36 E51.21529
G0 F5400 X99.044 Y93.005
G1 F1800 X98.004 Y94.045 E51.27984
G0 F5400 X97.015 Y94.045
G1 F1800 X99.044 Y92.015 E51.40581
G0 F5400 X99.044 Y91.025
G1 F1800 X96.025 Y94.045 E51.59324
G0 F5400 X95.035 Y94.045
G1 F1800 X99.044 Y90.035 E51.84212
G0 F5400 X99.044 Y89.045
G1 F1800 X94.045 Y94.045 E52.15244
G0 F5400 X93.055 Y94.045
G1 F1800 X99.044 Y88.056 E52.52419
G0 F5400 X99.044 Y87.066
G1 F1800 X92.065 Y94.045 E52.95739
G0 F5400 X91.075 Y94.045
G1 F1800 X99.044 Y86.076 E53.45204
G0 F5400 X99.044 Y85.086
G1 F1800 X90.085 Y94.045 E54.00814
G0 F5400 X89.095 Y94.045
G1 F1800 X99.044 Y84.096 E54.62569
G0 F5400 X99.044 Y83.106
G1 F1800 X88.105 Y94.045 E55.30469
G0 F5400 X87.115 Y94.045
G1 F1800 X99.044 Y82.116 E56.04514
G0 F5400 X99.044 Y81.126
G1 F1800 X86.125 Y94.045 E56.84705
G0 F5400 X85.955 Y93.225
G1 F1800 X98.225 Y80.955 E57.60867
G0 F5400 X97.235 Y80.955
G1 F1800 X85.955 Y92.235 E58.30884
G0 F5400 X85.955 Y91.245
G1 F1800 X96.245 Y80.955 E58.94755
G0 F5400 X95.255 Y80.955
G1 F1800 X85.955 Y90.255 E59.52482
G0 F5400 X85.955 Y89.265
G1 F1800 X94.265 Y80.955 E60.04064
G0 F5400 X93.275 Y80.955
G1 F1800 X85.955 Y88.275 E60.495
G0 F5400 X85.955 Y87.285
G1 F1800 X92.285 Y80.955 E60.88791
G0 F5400 X91.295 Y80.955
G1 F1800 X85.955 Y86.296 E61.21941
G0 F5400 X85.955 Y85.306
G1 F1800 X90.306 Y80.955 E61.48948
G0 F5400 X89.316 Y80.955
G1 F1800 X85.955 Y84.316 E61.6981
G0 F5400 X85.955 Y83.326
G1 F1800 X88.326 Y80.955 E61.84528
G0 F5400 X87.336 Y80.955
G1 F1800 X85.955 Y82.336 E61.931
G0 F5400 X85.955 Y81.346
G1 F1800 X86.346 Y80.955 E61.95527
;MESH:NONMESH
G0 F5400 X101.38 Y96.38
G0 X102.15 Y97.15
;TIME_ELAPSED:51.868076
;LAYER:2
;MESH:xyzCalibration_cube.stl
G0 F7200 X102.15 Y97.15 Z1.2
;TYPE:WALL-OUTER
G1 F1800 X82.85 Y97.15 E62.80237
G1 X82.85 Y77.85 E63.64947
G1 X102.15 Y77.85 E64.49657
G1 X102.15 Y97.15 E65.34368
G0 F7200 X101.75 Y97.15
G0 X101.45 Y96.45
;TYPE:WALL-INNER
G1 F3600 X83.55 Y96.45 E66.12933
G1 X83.55 Y78.55 E66.91498
G1 X101.45 Y78.55 E67.70064
G1 X101.45 Y96.45 E68.48629
G0 F7200 X100.75 Y95.75
G1 F3600 X84.25 Y95.75 E69.2105
G1 X84.25 Y79.25 E69.93471
G1 X100.75 Y79.25 E70.65891
G1 X100.75 Y95.75 E71.38312
G0 F7200 X100.06 Y95.06
;TYPE:SKIN
G1 F1800 X84.94 Y95.06 E72.04675
G1 X84.94 Y79.94 E72.71039
G1 X100.06 Y79.94 E73.37403
G1 X100.06 Y95.06 E74.03766
G0 F7200 X99.744 Y80.935
G1 F1800 X99.064 Y80.255 E74.07987
G0 F7200 X98.074 Y80.255
G1 F1800 X99.744 Y81.925 E74.18353
G0 F7200 X99.744 Y82.915
G1 F1800 X97.084 Y80.255 E74.34864
G0 F7200 X96.094 Y80.255
G1 F1800 X99.744 Y83.905 E74.5752
G0 F7200 X99.744 Y84.895
G1 F1800 X95.104 Y80.255 E74.86322
G0 F7200 X94.114 Y80.255
G1 F1800 X99.744 Y85.885 E75.21268
G0 F7200 X99.744 Y86.875
G1 F1800 X93.124 Y80.255 E75.62359
G0 F7200 X92.134 Y80.255
G1 F1800 X99.744 Y87.865 E76.09596
G0 F7200 X99.744 Y88.855
G1 F1800 X91.144 Y80.255 E76.62978
G0 F7200 X90.154 Y80.255
G1 F1800 X99.744 Y89.844 E77.22501
G0 F7200 X99.744 Y90.834
G1 F1800 X89.164 Y80.255 E77.8817
G0 F7200 X88.174 Y80.255
G1 F1800 X99.744 Y91.824 E78.59984
G0 F7200 X99.744 Y92.814
G1 F1800 X87.184 Y80.255 E79.37943
G0 F7200 X86.194 Y80.255
G1 F1800 X99.744 Y93.804 E80.22047
G0 F7200 X99.694 Y94.744
G1 F1800 X85.254 Y80.304 E81.11678
G0 F7200 X85.254 Y81.294
G1 F1800 X98.704 Y94.744 E81.95165
G0 F7200 X97.714 Y94.744
G1 F1800 X85.254 Y82.284 E82.72506
G0 F7200 X85.254 Y83.274
G1 F1800 X96.724 Y94.744 E83.43702
G0 F7200 X95.734 Y94.744
G1 F1800 X85.254 Y84.264 E84.08753
G0 F7200 X85.254 Y85.254
G1 F1800 X94.744 Y94.744 E84.67659
G0 F7200 X93.754 Y94.744
G1 F1800 X85.254 Y86.244 E85.2042
G0 F7200 X85.254 Y87.234
G1 F1800 X92.764 Y94.744 E85.67036
G0 F7200 X91.774 Y94.744
G1 F1800 X85.254 Y88.224 E86.07507
G0 F7200 X85.254 Y89.214
G1 F1800 X90.784 Y94.744 E86.41832
G0 F7200 X89.794 Y94.744
G1 F1800 X85.254 Y90.204 E86.70013
G0 F7200 X85.254 Y91.194
G1 F1800 X88.804 Y94.744 E86.92048
G0 F7200 X87.814 Y94.744
G1 F1800 X85.254 Y92.184 E87.07939
G0 F7200 X85.254 Y93.174
G1 F1800 X86.824 Y94.744 E87.17684
G0 F7200 X85.834 Y94.744
G1 F1800 X85.254 Y94.163 E87.21287
;MESH:NONMESH
G0 F7200 X101.38 Y96.38
G0 X102.15 Y97.15
;TIME_ELAPSED:70.195157
;LAYER:3
;MESH:xyzCalibration_cube.stl
G0 X102.15 Y97.15 Z1.6
;TYPE:WALL-OUTER
G1 F1800 X82.85 Y97.15 E88.05997
G1 X82.85 Y77.85 E88.90708
G1 X102.15 Y77.85 E89.75418
G1 X102.15 Y97.15 E90.60128
G0 F7200 X101.75 Y97.15
G0 X101.45 Y96.45
;TYPE:WALL-INNER
G1 F3600 X83.55 Y96.45 E91.38693
G1 X83.55 Y78.55 E92.17259
G1 X101.45 Y78.55 E92.95824
G1 X101.45 Y96.45 E93.7439
G0 F7200 X100.75 Y95.75
G1 F3600 X84.25 Y95.75 E94.4681
G1 X84.25 Y79.25 E95.19231
G1 X100.75 Y79.25 E95.91652
G1 X100.75 Y95.75 E96.64072
G0 F7200 X100.05 Y95.05
G1 F3600 X84.95 Y95.05 E97.30348
G1 X84.95 Y79.95 E97.96624
G1 X100.05 Y79.95 E98.629
G1 X100.05 Y95.05 E99.29176
G0 F7200 X99.36 Y94.36
;TYPE:SKIN
G1 F1800 X85.64 Y94.36 E99.89395
G1 X85.64 Y80.64 E100.49613
G1 X99.36 Y80.64 E101.09832
G1 X99.36 Y94.36 E101.70051
G0 F7200 X99.044 Y93.005
G1 F1800 X98.004 Y94.045 E101.76507
G0 F7200 X97.015 Y94.045
G1 F1800 X99.044 Y92.015 E101.89104
G0 F7200 X99.044 Y91.025
G1 F1800 X96.025 Y94.045 E102.07847
G0 F7200 X95.035 Y94.045
G1 F1800 X99.044 Y90.035 E102.32734
G0 F7200 X99.044 Y89.045
G1 F1800 X94.045 Y94.045 E102.63767
G0 F7200 X93.055 Y94.045
G1 F1800 X99.044 Y88.056 E103.00942
G0 F7200 X99.044 Y87.066
G1 F1800 X92.065 Y94.045 E103.44262
G0 F7200 X91.075 Y94.045
G1 F1800 X99.044 Y86.076 E103.93726
G0 F7200 X99.044 Y85.086
G1 F1800 X90.085 Y94.045 E104.49336
G0 F7200 X89.095 Y94.045
G1 F1800 X99.044 Y84.096 E105.11092
G0 F7200 X99.044 Y83.106
G1 F1800 X88.105 Y94.045 E105.78992
G0 F7200 X87.115 Y94.045
G1 F1800 X99.044 Y82.116 E106.53037
G0 F7200 X99.044 Y81.126
G1 F1800 X86.125 Y94.045 E107.33227
G0 F7200 X85.955 Y93.225
G1 F1800 X98.225 Y80.955 E108.09389
G0 F7200 X97.235 Y80.955
G1 F1800 X85.955 Y92.235 E108.79406
G0 F7200 X85.955 Y91.245
G1 F1800 X96.245 Y80.955 E109.43278
G0 F7200 X95.255 Y80.955
G1 F1800 X85.955 Y90.255 E110.01005
G0 F7200 X85.955 Y89.265
G1 F1800 X94.265 Y80.955 E110.52586
G0 F7200 X93.275 Y80.955
G1 F1800 X85.955 Y88.275 E110.98023
G0 F7200 X85.955 Y87.285
G1 F1800 X92.285 Y80.955 E111.37314
G0 F7200 X91.295 Y80.955
G1 F1800 X85.955 Y86.296 E111.70463
G0 F7200 X85.955 Y85.306
G1 F1800 X90.306 Y80.955 E111.97471
G0 F7200 X89.316 Y80.955
G1 F1800 X85.955 Y84.316 E112.18333
G0 F7200 X85.955 Y83.326
G1 F1800 X88.326 Y80.955 E112.3305
G0 F7200 X87.336 Y80.955
G1 F1800 X85.955 Y82.336 E112.41622
G0 F7200 X85.955 Y81.346
G1 F1800 X86.346 Y80.955 E112.44049
;MESH:NONMESH
G0 F7200 X101.38 Y96.38
G0 X102.15 Y97.15
;TIME_ELAPSED:87.387096
;LAYER:4
;MESH:xyzCalibration_cube.stl
G0 X102.15 Y97.15 Z2
;TYPE:WALL-OUTER
G1 F1800 X82.85 Y97.15 E113.2876
G1 X82.85 Y77.85 E114.1347
G1 X102.15 Y77.85 E114.9818
G1 X102.15 Y97.15 E115.8289
G0 F7200 X101.75 Y97.15
G0 X101.45 Y96.45
;TYPE:WALL-INNER
G1 F3600 X83.55 Y96.45 E116.61456
G1 X83.55 Y78.55 E117.40021
G1 X101.45 Y78.55 E118.18586
G1 X101.45 Y96.45 E118.97152
G0 F7200 X100.75 Y95.75
G1 F3600 X84.25 Y95.75 E119.69573
G1 X84.25 Y79.25 E120.41993
G1 X100.75 Y79.25 E121.14414
G1 X100.75 Y95.75 E121.86834
G0 F7200 X100.469 Y95.47
;TYPE:FILL
G1 F3600 X84.528 Y79.529 E122.85783
G1 X84.405 Y79.406
G0 F7200 X84.529 Y89.635
G1 F3600 X100.469 Y85.364 E123.58214
G1 X100.638 Y85.319
G0 F7200 X100.469 Y80.62
G1 F3600 X99.378 Y79.53 E123.64982
G1 X99.255 Y79.407
G0 F7200 X94.634 Y79.529
G1 F3600 X90.363 Y95.469 E124.37413
G1 X90.318 Y95.638
G0 F7200 X85.619 Y95.469
G1 F3600 X84.529 Y94.379 E124.44179
G1 X84.406 Y94.256
;MESH:NONMESH
G0 F7200 X101.38 Y96.38
G0 X102.15 Y97.15
;TIME_ELAPSED:94.044008
;LAYER:5
;MESH:xyzCalibration_cube.stl
G0 X102.15 Y97.15 Z2.4
;TYPE:WALL-OUTER
G1 F1800 X82.85 Y97.15 E125.28889
G1 X82.85 Y77.85 E126.13599
G1 X102.15 Y77.85 E126.9831
G1 X102.15 Y97.15 E127.8302
G0 F7200 X101.75 Y97.15
G0 X101.45 Y96.45
;TYPE:WALL-INNER
G1 F3600 X83.55 Y96.45 E128.61585
G1 X83.55 Y78.55 E129.40151
G1 X101.45 Y78.55 E130.18716
G1 X101.45 Y96.45 E130.97281
G0 F7200 X100.75 Y95.75
G1 F3600 X84.25 Y95.75 E131.69702
G1 X84.25 Y79.25 E132.42123
G1 X100.75 Y79.25 E133.14543
G1 X100.75 Y95.75 E133.86964
G0 F7200 X100.05 Y95.05
G1 F3600 X84.95 Y95.05 E134.5324
G1 X84.95 Y79.95 E135.19516
G1 X100.05 Y79.95 E135.85792
G1 X100.05 Y95.05 E136.52067
G0 F7200 X99.769 Y94.769
;TYPE:FILL
G1 F3600 X85.228 Y80.229 E137.42323
